;FLAVOR:Marlin
;TIME:1725
;Filament used: 1.36036m
;Layer height: 0.15
;MINX:101.255
;MINY:81.603
;MINZ:0.2
;MAXX:148.745
;MAXY:126.797
;MAXZ:7.4
;Generated with Cura_SteamEngine 5.3.0
M82 ;absolute extrusion mode
G21 ; set units to millimeters
G90 ; use absolute positioning
M82 ; absolute extrusion mode
M104 S210 ; set extruder temp
M140 S70 ; set bed temp
M190 S70 ; wait for bed temp
M109 S210 ; wait for extruder temp
G28 W ; home all without mesh bed level
G80 ; mesh bed leveling
G92 E0.0 ; reset extruder distance position
G1 Y-3.0 F1000.0 ; go outside print area
G1 X60.0 E9.0 F1000.0 ; intro line
G1 X100.0 E21.5 F1000.0 ; intro line
G92 E0.0 ; reset extruder distance position
G92 E0
G92 E0
G1 F2100 E-3
;LAYER_COUNT:49
;LAYER:0
M107
G0 F3600 X107.796 Y84.568 Z0.2
;TYPE:SKIRT
G1 F2100 E0
G1 F1800 X108.452 Y83.851 E0.03232
G1 X109.242 Y83.018 E0.07051
G1 X109.618 Y82.68 E0.08732
G1 X110.042 Y82.405 E0.10413
G1 X110.505 Y82.2 E0.12097
G1 X110.993 Y82.071 E0.13776
G1 X111.507 Y82.021 E0.15494
G1 X112.341 Y82.006 E0.18268
G1 X113.452 Y82.003 E0.21963
G1 X114.263 Y82.014 E0.24661
G1 X115.736 Y82.155 E0.29583
G1 X118.481 Y82.38 E0.38743
G1 X121.201 Y82.527 E0.47803
G1 X123.952 Y82.597 E0.56956
G1 X126.704 Y82.588 E0.66109
G1 X129.423 Y82.503 E0.75157
G1 X132.136 Y82.342 E0.84196
G1 X135.66 Y82.022 E0.95965
G1 X136.854 Y82.004 E0.99937
G1 X137.777 Y82.006 E1.03007
G1 X138.482 Y82.018 E1.05352
G1 X138.986 Y82.067 E1.07036
G1 X139.475 Y82.194 E1.08717
G1 X139.938 Y82.397 E1.10398
G1 X140.364 Y82.67 E1.12081
G1 X140.793 Y83.052 E1.13992
G1 X141.434 Y83.848 E1.17391
G1 X142.345 Y85.011 E1.22304
G1 X142.907 Y85.75 E1.25392
G1 X143.539 Y86.606 E1.28931
G1 X145.222 Y88.756 E1.38013
G1 X146.591 Y90.418 E1.45174
G1 X147.29 Y91.467 E1.49367
G1 X147.831 Y92.64 E1.53663
G1 X148.158 Y93.755 E1.57528
G1 X148.331 Y94.962 E1.61584
G1 X148.345 Y95.888 E1.64664
G1 X148.345 Y112.319 E2.19314
G1 X148.336 Y112.975 E2.21496
G1 X148.279 Y113.531 E2.23355
G1 X148.062 Y114.655 E2.27162
G1 X147.665 Y115.773 E2.31108
G1 X147.112 Y116.826 E2.35064
G1 X146.471 Y117.715 E2.38709
G1 X145.777 Y118.468 E2.42115
G1 X143.921 Y120.516 E2.51308
G1 X141.694 Y123.137 E2.62747
G1 X141.167 Y123.632 E2.65152
G1 X140.453 Y124.163 E2.68111
G1 X139.503 Y124.845 E2.72001
G1 X138.461 Y125.616 E2.76312
G1 X138.032 Y125.883 E2.77993
G1 X137.566 Y126.08 E2.79676
G1 X136.832 Y126.231 E2.82168
G1 X134.838 Y126.398 E2.88823
G1 X133.847 Y126.381 E2.9212
G1 X132.12 Y126.304 E2.9787
G1 X128.189 Y126.224 E3.10947
G1 X121.678 Y126.223 E3.32603
G1 X118.896 Y126.262 E3.41857
G1 X116.754 Y126.358 E3.48988
G1 X115.671 Y126.392 E3.52592
G1 X115.058 Y126.384 E3.54631
G1 X114.507 Y126.329 E3.56473
G1 X113.631 Y126.162 E3.59439
G1 X113.018 Y125.968 E3.61577
G1 X112.275 Y125.658 E3.64255
G1 X110.518 Y124.611 E3.71058
G1 X109.682 Y124.096 E3.74323
G1 X109.099 Y123.75 E3.76578
G1 X108.686 Y123.459 E3.78259
G1 X108.303 Y123.082 E3.80046
G1 X106.619 Y121.12 E3.88646
G1 X104.941 Y119.268 E3.96958
G1 X104.008 Y118.261 E4.01524
G1 X103.585 Y117.77 E4.03679
G1 X103.183 Y117.264 E4.05829
G1 X102.882 Y116.809 E4.07643
G1 X102.391 Y115.908 E4.11056
G1 X102.138 Y115.28 E4.13308
G1 X101.991 Y114.788 E4.15016
G1 X101.833 Y114.19 E4.17073
G1 X101.738 Y113.637 E4.18939
G1 X101.683 Y112.895 E4.21414
G1 X101.655 Y111.525 E4.25972
G1 X101.655 Y95.89 E4.77974
G1 X101.668 Y95.015 E4.80884
G1 X101.831 Y93.808 E4.84935
G1 X102.141 Y92.717 E4.88708
G1 X102.531 Y91.824 E4.91949
G1 X102.776 Y91.384 E4.93624
G1 X103.222 Y90.686 E4.96379
G1 X103.999 Y89.701 E5.00551
G1 X105.693 Y87.492 E5.0981
G1 X106.887 Y85.819 E5.16646
G1 X107.796 Y84.568 E5.2179
G0 F3600 X107.472 Y84.333
G1 F1800 X108.162 Y83.576 E5.25196
G1 X108.952 Y82.743 E5.29015
G1 X109.4 Y82.344 E5.3101
G1 X109.824 Y82.069 E5.32691
G1 X110.343 Y81.834 E5.34586
G1 X110.891 Y81.684 E5.36476
G1 X111.5 Y81.621 E5.38512
G1 X112.34 Y81.606 E5.41306
G1 X113.457 Y81.603 E5.45022
G1 X114.268 Y81.614 E5.47719
G1 X115.769 Y81.756 E5.52734
G1 X118.514 Y81.982 E5.61895
G1 X121.211 Y82.127 E5.70878
G1 X123.961 Y82.197 E5.80027
G1 X126.692 Y82.188 E5.89111
G1 X129.411 Y82.103 E5.98159
G1 X132.109 Y81.943 E6.07148
G1 X135.654 Y81.622 E6.18987
G1 X136.855 Y81.604 E6.22982
G1 X137.784 Y81.606 E6.26072
G1 X138.521 Y81.62 E6.28523
G1 X139.087 Y81.68 E6.30417
G1 X139.636 Y81.828 E6.32308
G1 X140.154 Y82.06 E6.34195
G1 X140.63 Y82.371 E6.36087
G1 X141.105 Y82.801 E6.38218
G1 X141.749 Y83.601 E6.41633
G1 X142.663 Y84.769 E6.46566
G1 X143.229 Y85.512 E6.49673
G1 X143.854 Y86.359 E6.53174
G1 X145.537 Y88.509 E6.62255
G1 X146.924 Y90.196 E6.69519
G1 X147.623 Y91.245 E6.73712
G1 X148.215 Y92.527 E6.78408
G1 X148.542 Y93.642 E6.82273
G1 X148.731 Y94.956 E6.86689
G1 X148.745 Y95.882 E6.89769
G1 X148.745 Y112.324 E7.44455
G1 X148.734 Y113.016 E7.46757
G1 X148.672 Y113.607 E7.48733
G1 X148.455 Y114.731 E7.52541
G1 X148.042 Y115.907 E7.56686
G1 X147.466 Y117.012 E7.60831
G1 X146.765 Y117.986 E7.64822
G1 X146.071 Y118.739 E7.68228
G1 X144.226 Y120.775 E7.77367
G1 X141.968 Y123.429 E7.88957
G1 X141.441 Y123.924 E7.91361
G1 X140.686 Y124.488 E7.94496
G1 X139.741 Y125.167 E7.98366
G1 X138.699 Y125.938 E8.02677
G1 X138.243 Y126.223 E8.04466
G1 X137.684 Y126.465 E8.06492
G1 X136.865 Y126.63 E8.09271
G1 X134.871 Y126.797 E8.15926
G1 X133.829 Y126.781 E8.19392
G1 X132.102 Y126.704 E8.25142
G1 X128.181 Y126.624 E8.38186
G1 X121.684 Y126.623 E8.59795
G1 X118.914 Y126.662 E8.69009
G1 X116.767 Y126.758 E8.76157
G1 X115.666 Y126.792 E8.79821
G1 X115.053 Y126.784 E8.8186
G1 X114.432 Y126.722 E8.83935
G1 X113.556 Y126.555 E8.86901
G1 X112.864 Y126.337 E8.89315
G1 X112.07 Y126.002 E8.92181
G1 X110.308 Y124.952 E8.99003
G1 X109.472 Y124.437 E9.02269
G1 X108.869 Y124.077 E9.04605
G1 X108.405 Y123.744 E9.06504
G1 X107.999 Y123.343 E9.08402
G1 X106.315 Y121.381 E9.17002
G1 X104.645 Y119.537 E9.25276
G1 X103.705 Y118.522 E9.29878
G1 X103.272 Y118.019 E9.32085
G1 X102.849 Y117.485 E9.34351
G1 X102.548 Y117.03 E9.36165
G1 X102.02 Y116.057 E9.39847
G1 X101.755 Y115.395 E9.42219
G1 X101.604 Y114.89 E9.43972
G1 X101.446 Y114.292 E9.46029
G1 X101.339 Y113.667 E9.48138
G1 X101.283 Y112.903 E9.50686
G1 X101.255 Y111.533 E9.55244
G1 X101.255 Y95.884 E10.07293
G1 X101.268 Y95.009 E10.10203
G1 X101.446 Y93.699 E10.146
G1 X101.774 Y92.557 E10.18552
G1 X102.164 Y91.664 E10.21793
G1 X102.439 Y91.169 E10.23677
G1 X102.908 Y90.438 E10.26565
G1 X103.686 Y89.453 E10.3074
G1 X105.367 Y87.26 E10.3993
G1 X106.563 Y85.584 E10.46779
G1 X107.472 Y84.333 E10.51922
G1 F2100 E7.51922
G0 F3600 X111.517 Y85.344
;TYPE:SUPPORT
G1 F2100 E10.51922
G1 F1800 X114.134 Y85.344 E10.60626
G1 F2100 E7.60626
G0 F3600 X112.014 Y85.166
G1 F2100 E10.60626
G1 F1800 X112.014 Y121.349 E11.80971
G1 F2100 E8.80971
G0 F3600 X113.422 Y122.682
G1 F2100 E11.80971
G1 F1800 X136.958 Y122.682 E12.59252
G0 F3600 X136.017 Y123.031
G1 F1800 X136.017 Y85.162 E13.85205
G0 F3600 X135.867 Y85.344
G1 F1800 X138.474 Y85.344 E13.93876
G0 F3600 X138.684 Y85.872
G1 F1800 X138.684 Y121.039 E15.10842
G0 F3600 X139.695 Y120.015
G1 F1800 X135.179 Y120.015 E15.25862
G1 F2100 E12.25862
G0 F3600 X133.35 Y120.452
G1 F2100 E15.25862
G1 F1800 X133.35 Y123.079 E15.346
G1 F2100 E12.346
G0 F3600 X130.683 Y123.063
G1 F2100 E15.346
G1 F1800 X130.683 Y120.455 E15.43274
G1 F2100 E12.43274
G0 F3600 X128.016 Y120.458
G1 F2100 E15.43274
G1 F1800 X128.016 Y123.063 E15.51938
G1 F2100 E12.51938
G0 F3600 X125.349 Y123.063
G1 F2100 E15.51938
G1 F1800 X125.349 Y120.458 E15.60602
G1 F2100 E12.60602
G0 F3600 X122.682 Y120.457
G1 F2100 E15.60602
G1 F1800 X122.682 Y123.063 E15.6927
G1 F2100 E12.6927
G0 F3600 X120.015 Y123.063
G1 F2100 E15.6927
G1 F1800 X120.015 Y120.456 E15.77941
G1 F2100 E12.77941
G0 F3600 X117.348 Y120.456
G1 F2100 E15.77941
G1 F1800 X117.348 Y123.063 E15.86612
G1 F2100 E12.86612
G0 F3600 X114.681 Y123.154
G1 F2100 E15.86612
G1 F1800 X114.681 Y119.839 E15.97638
G0 F3600 X114.815 Y120.015
G1 F1800 X110.264 Y120.015 E16.12774
G1 F2100 E13.12774
G0 F3600 X109.347 Y118.418
G1 F2100 E16.12774
G1 F1800 X109.347 Y89.153 E17.1011
G0 F3600 X109.877 Y88.011
G1 F1800 X114.157 Y88.011 E17.24345
G1 F2100 E14.24345
G0 F3600 X114.18 Y90.678
G1 F2100 E17.24345
G1 F1800 X107.988 Y90.678 E17.4494
G1 F2100 E14.4494
G0 F3600 X106.68 Y91.593
G1 F2100 E17.4494
G1 F1800 X106.68 Y116.403 E18.27458
G1 F2100 E15.27458
G0 F3600 X108.113 Y117.348
G1 F2100 E18.27458
G1 F1800 X114.415 Y117.348 E18.48419
G1 F2100 E15.48419
G0 F3600 X114.387 Y114.681
G1 F2100 E18.48419
G1 F1800 X105.318 Y114.681 E18.78583
G1 F2100 E15.78583
G0 F3600 X104.815 Y112.014
G1 F2100 E18.78583
G1 F1800 X114.362 Y112.014 E19.10336
G1 F2100 E16.10336
G0 F3600 X114.34 Y109.347
G1 F2100 E19.10336
G1 F1800 X104.815 Y109.347 E19.42016
G1 F2100 E16.42016
G0 F3600 X104.815 Y106.68
G1 F2100 E19.42016
G1 F1800 X114.317 Y106.68 E19.7362
G1 F2100 E16.7362
G0 F3600 X114.294 Y104.013
G1 F2100 E19.7362
G1 F1800 X104.815 Y104.013 E20.05147
G1 F2100 E17.05147
G0 F3600 X104.815 Y101.346
G1 F2100 E20.05147
G1 F1800 X114.271 Y101.346 E20.36598
G1 F2100 E17.36598
G0 F3600 X114.248 Y98.679
G1 F2100 E20.36598
G1 F1800 X104.815 Y98.679 E20.67972
G1 F2100 E17.67972
G0 F3600 X104.815 Y96.012
G1 F2100 E20.67972
G1 F1800 X114.225 Y96.012 E20.9927
G1 F2100 E17.9927
G0 F3600 X114.203 Y93.345
G1 F2100 E20.9927
G1 F1800 X105.309 Y93.345 E21.28852
G1 F2100 E18.28852
G0 F3600 X114.143 Y85.544
G0 X135.857 Y85.544
G0 X135.797 Y93.345
G1 F2100 E21.28852
G1 F1800 X144.693 Y93.345 E21.5844
G0 F3600 X144.018 Y92.267
G1 F1800 X144.018 Y115.73 E22.36478
G0 F3600 X144.681 Y114.681
G1 F1800 X135.61 Y114.681 E22.66649
G1 F2100 E19.66649
G0 F3600 X135.633 Y112.014
G1 F2100 E22.66649
G1 F1800 X145.185 Y112.014 E22.98419
G1 F2100 E19.98419
G0 F3600 X145.185 Y109.347
G1 F2100 E22.98419
G1 F1800 X135.656 Y109.347 E23.30112
G1 F2100 E20.30112
G0 F3600 X135.68 Y106.68
G1 F2100 E23.30112
G1 F1800 X145.185 Y106.68 E23.61726
G1 F2100 E20.61726
G0 F3600 X145.185 Y104.013
G1 F2100 E23.61726
G1 F1800 X135.703 Y104.013 E23.93263
G1 F2100 E20.93263
G0 F3600 X135.727 Y101.346
G1 F2100 E23.93263
G1 F1800 X145.185 Y101.346 E24.24721
G1 F2100 E21.24721
G0 F3600 X145.185 Y98.679
G1 F2100 E24.24721
G1 F1800 X135.75 Y98.679 E24.56102
G1 F2100 E21.56102
G0 F3600 X135.773 Y96.012
G1 F2100 E24.56102
G1 F1800 X145.185 Y96.012 E24.87406
G1 F2100 E21.87406
G0 F3600 X142.035 Y90.678
G1 F2100 E24.87406
G1 F1800 X135.82 Y90.678 E25.08077
G1 F2100 E22.08077
G0 F3600 X135.843 Y88.011
G1 F2100 E25.08077
G1 F1800 X140.132 Y88.011 E25.22342
G1 F2100 E22.22342
G0 F3600 X141.351 Y90.033
G1 F2100 E25.22342
G1 F1800 X141.351 Y117.752 E26.14536
G0 F3600 X141.88 Y117.348
G1 F1800 X135.586 Y117.348 E26.3547
G1 F2100 E23.3547
;MESH:Axivity - AX3 Wrist Case Mk1 v9.stl
G0 F3600 X134.508 Y117.336
G0 X132.722 Y117.59
;TYPE:WALL-INNER
G1 F2100 E26.3547
G1 F1800 X132.98 Y88.397 E27.3257
G1 X117.02 Y88.397 E27.85653
G1 X117.28 Y117.594 E28.82767
G1 X132.722 Y117.59 E29.34127
G0 F3600 X133.119 Y117.99
G1 F1800 X133.383 Y87.997 E30.33888
G1 X116.617 Y87.997 E30.89652
G1 X116.883 Y117.994 E31.89427
G1 X133.119 Y117.99 E32.43428
G0 F3600 X133.515 Y118.39
G1 F1800 X133.787 Y87.597 E33.4585
G1 X116.213 Y87.597 E34.04301
G1 X116.487 Y118.394 E35.06736
G1 X133.515 Y118.39 E35.63372
G0 F3600 X133.912 Y118.79
G1 F1800 X134.191 Y87.197 E36.68454
G1 X115.809 Y87.197 E37.29593
G1 X116.09 Y118.794 E38.34689
G1 X133.912 Y118.79 E38.93966
G0 F3600 X134.321 Y87.067
G0 X134.594 Y86.797
G1 F1800 X115.406 Y86.797 E39.57785
G1 X115.693 Y119.096 E40.65216
G1 X115.785 Y119.169 E40.65607
G1 X115.901 Y119.195 E40.66002
G1 X134.175 Y119.19 E41.26782
G1 X134.31 Y119.089 E41.27343
G1 X134.594 Y86.797 E42.3475
G0 F3600 X134.998 Y86.397
;TYPE:WALL-OUTER
G1 F1800 X115.002 Y86.397 E43.01257
G1 X115.292 Y119.069 E44.09929
G1 X115.337 Y119.267 E44.10605
G1 X115.416 Y119.391 E44.11094
G1 X115.613 Y119.541 E44.11917
G1 X115.859 Y119.595 E44.12755
G1 X134.11 Y119.59 E44.73458
G1 X134.362 Y119.55 E44.74307
G1 X134.596 Y119.376 E44.75276
G1 X134.659 Y119.273 E44.75678
G1 X134.711 Y119.034 E44.76492
G1 X134.998 Y86.397 E45.85047
G0 F3600 X134.798 Y86.397
G0 X134.321 Y87.067
G0 X132.344 Y117.21
;TYPE:SKIN
G1 F1800 X117.658 Y117.213 E46.33893
G1 X117.403 Y88.778 E47.28472
G1 X132.597 Y88.778 E47.79007
G1 X132.344 Y117.21 E48.73576
G0 F3600 X118.143 Y117.012
G1 F1800 X117.852 Y116.721 E48.74945
G0 F3600 X117.847 Y116.15
G1 F1800 X118.709 Y117.012 E48.78999
G0 F3600 X119.274 Y117.012
G1 F1800 X117.842 Y115.579 E48.85737
G0 F3600 X117.837 Y115.008
G1 F1800 X119.84 Y117.012 E48.95161
G0 F3600 X120.406 Y117.012
G1 F1800 X117.832 Y114.438 E49.07269
G0 F3600 X117.827 Y113.867
G1 F1800 X120.971 Y117.012 E49.22059
G0 F3600 X121.536 Y117.011
G1 F1800 X117.821 Y113.296 E49.39534
G0 F3600 X117.816 Y112.725
G1 F1800 X122.102 Y117.011 E49.59694
G0 F3600 X122.668 Y117.011
G1 F1800 X117.811 Y112.154 E49.82539
G0 F3600 X117.806 Y111.584
G1 F1800 X123.233 Y117.011 E50.08066
G0 F3600 X123.799 Y117.011
G1 F1800 X117.801 Y111.013 E50.36279
G0 F3600 X117.796 Y110.442
G1 F1800 X124.365 Y117.011 E50.67178
G0 F3600 X124.93 Y117.011
G1 F1800 X117.791 Y109.871 E51.0076
G0 F3600 X117.786 Y109.301
G1 F1800 X125.495 Y117.01 E51.37021
G0 F3600 X126.061 Y117.01
G1 F1800 X117.781 Y108.73 E51.75967
G0 F3600 X117.775 Y108.159
G1 F1800 X126.627 Y117.01 E52.17602
G0 F3600 X127.192 Y117.01
G1 F1800 X117.77 Y107.588 E52.6192
G0 F3600 X117.765 Y107.017
G1 F1800 X127.758 Y117.01 E53.08924
G0 F3600 X128.324 Y117.01
G1 F1800 X117.76 Y106.447 E53.58612
G0 F3600 X117.755 Y105.875
G1 F1800 X128.889 Y117.009 E54.10982
G0 F3600 X129.454 Y117.009
G1 F1800 X117.75 Y105.305 E54.66034
G0 F3600 X117.745 Y104.734
G1 F1800 X130.02 Y117.009 E55.23772
G0 F3600 X130.586 Y117.009
G1 F1800 X117.74 Y104.163 E55.84196
G0 F3600 X117.735 Y103.593
G1 F1800 X131.152 Y117.009 E56.47303
G0 F3600 X131.717 Y117.009
G1 F1800 X117.729 Y103.021 E57.13098
G0 F3600 X117.724 Y102.451
G1 F1800 X132.146 Y116.872 E57.80933
G0 F3600 X132.151 Y116.311
G1 F1800 X117.719 Y101.88 E58.48814
G0 F3600 X117.714 Y101.31
G1 F1800 X132.156 Y115.751 E59.16742
G0 F3600 X132.161 Y115.19
G1 F1800 X117.709 Y100.738 E59.8472
G0 F3600 X117.704 Y100.168
G1 F1800 X132.166 Y114.629 E60.52743
G0 F3600 X132.171 Y114.069
G1 F1800 X117.699 Y99.597 E61.20814
G0 F3600 X117.694 Y99.026
G1 F1800 X132.176 Y113.509 E61.88936
G0 F3600 X132.181 Y112.948
G1 F1800 X117.689 Y98.456 E62.57102
G0 F3600 X117.683 Y97.884
G1 F1800 X132.186 Y112.387 E63.25319
G0 F3600 X132.191 Y111.826
G1 F1800 X117.678 Y97.314 E63.93582
G0 F3600 X117.673 Y96.743
G1 F1800 X132.196 Y111.266 E64.61893
G0 F3600 X132.201 Y110.705
G1 F1800 X117.668 Y96.172 E65.30252
G0 F3600 X117.663 Y95.601
G1 F1800 X132.206 Y110.144 E65.98658
G0 F3600 X132.211 Y109.583
G1 F1800 X117.658 Y95.03 E66.67111
G0 F3600 X117.653 Y94.46
G1 F1800 X132.216 Y109.023 E67.35611
G0 F3600 X132.221 Y108.462
G1 F1800 X117.648 Y93.889 E68.04158
G0 F3600 X117.642 Y93.318
G1 F1800 X132.226 Y107.901 E68.72754
G0 F3600 X132.231 Y107.34
G1 F1800 X117.637 Y92.747 E69.41397
G0 F3600 X117.632 Y92.177
G1 F1800 X132.236 Y106.78 E70.10088
G0 F3600 X132.24 Y106.219
G1 F1800 X117.627 Y91.606 E70.78823
G0 F3600 X117.622 Y91.035
G1 F1800 X132.245 Y105.658 E71.47605
G0 F3600 X132.251 Y105.098
G1 F1800 X117.617 Y90.464 E72.16439
G0 F3600 X117.612 Y89.893
G1 F1800 X132.256 Y104.537 E72.8532
G0 F3600 X132.261 Y103.977
G1 F1800 X117.607 Y89.323 E73.54248
G0 F3600 X117.828 Y88.978
G1 F1800 X132.266 Y103.416 E74.22159
G0 F3600 X132.271 Y102.855
G1 F1800 X118.393 Y88.978 E74.87435
G0 F3600 X118.959 Y88.978
G1 F1800 X132.276 Y102.295 E75.50074
G0 F3600 X132.281 Y101.734
G1 F1800 X119.525 Y88.978 E76.10074
G0 F3600 X120.09 Y88.978
G1 F1800 X132.286 Y101.173 E76.67438
G0 F3600 X132.291 Y100.612
G1 F1800 X120.656 Y88.978 E77.22163
G0 F3600 X121.222 Y88.978
G1 F1800 X132.296 Y100.052 E77.74252
G0 F3600 X132.301 Y99.491
G1 F1800 X121.787 Y88.978 E78.23704
G0 F3600 X122.353 Y88.978
G1 F1800 X132.306 Y98.93 E78.70518
G0 F3600 X132.31 Y98.369
G1 F1800 X122.919 Y88.978 E79.1469
G0 F3600 X123.484 Y88.978
G1 F1800 X132.315 Y97.809 E79.56229
