;FLAVOR:Marlin
;TIME:2908
;Filament used: 1.41539m
;Layer height: 0.16
;MINX:86.356
;MINY:86.703
;MINZ:0.2
;MAXX:148.645
;MAXY:146.183
;MAXZ:7.24
;Generated with Cura_SteamEngine 5.3.0
M140 S50
M105
M190 S50
M104 S200
M105
M109 S200
M82 ;absolute extrusion mode
; Ender 3 Custom Start G-code
G92 E0 ; Reset Extruder
G28 ; Home all axes
G1 Z2.0 F3000 ; Move Z Axis up little to prevent scratching of Heat Bed
G1 X0.1 Y20 Z0.3 F5000.0 ; Move to start position
G1 X0.1 Y200.0 Z0.3 F1500.0 E15 ; Draw the first line
G1 X0.4 Y200.0 Z0.3 F5000.0 ; Move to side a little
G1 X0.4 Y20 Z0.3 F1500.0 E30 ; Draw the second line
G92 E0 ; Reset Extruder
G1 Z2.0 F3000 ; Move Z Axis up little to prevent scratching of Heat Bed
G1 X5 Y20 Z0.3 F5000.0 ; Move over to prevent blob squish
G92 E0
G92 E0
G1 F2700 E-5
;LAYER_COUNT:48
;LAYER:0
M107
G0 F6000 X97.155 Y90.713 Z0.2
;TYPE:SKIRT
G1 F2700 E0
G1 F1200 X97.803 Y90.085 E0.03001
G1 X98.504 Y89.516 E0.06004
G1 X99.253 Y89.011 E0.09009
G1 X100.044 Y88.574 E0.12014
G1 X100.87 Y88.209 E0.15018
G1 X101.725 Y87.919 E0.18021
G1 X102.602 Y87.705 E0.21023
G1 X103.495 Y87.57 E0.24027
G1 X104.436 Y87.514 E0.27163
G1 X105.531 Y87.503 E0.30805
G1 X106.231 Y87.513 E0.33133
G1 X107.127 Y87.565 E0.36118
G1 X108.497 Y87.706 E0.40699
G1 X111.033 Y87.924 E0.49165
G1 X113.61 Y88.074 E0.57751
G1 X116.107 Y88.148 E0.66059
G1 X118.675 Y88.152 E0.746
G1 X121.208 Y88.084 E0.83028
G1 X123.701 Y87.946 E0.91333
G1 X127.07 Y87.65 E1.02581
G1 X127.784 Y87.575 E1.04969
G1 X128.676 Y87.521 E1.07941
G1 X129.938 Y87.504 E1.12139
G1 X130.594 Y87.515 E1.14321
G1 X131.495 Y87.571 E1.17324
G1 X132.388 Y87.705 E1.20327
G1 X133.266 Y87.918 E1.23332
G1 X134.121 Y88.208 E1.26335
G1 X134.948 Y88.573 E1.29342
G1 X135.739 Y89.009 E1.32346
G1 X136.488 Y89.513 E1.35348
G1 X137.189 Y90.081 E1.38349
G1 X137.838 Y90.71 E1.41355
G1 X138.353 Y91.299 E1.43957
G1 X139.204 Y92.351 E1.48458
G1 X139.341 Y92.507 E1.49148
G1 X140.028 Y93.366 E1.52807
G1 X141.714 Y95.363 E1.615
G1 X143.883 Y97.781 E1.72303
G1 X144.391 Y98.38 E1.74916
G1 X144.821 Y98.934 E1.77248
G1 X145.163 Y99.407 E1.7919
G1 X145.659 Y100.161 E1.82191
G1 X145.929 Y100.644 E1.84032
G1 X146.173 Y101.109 E1.85778
G1 X146.479 Y101.744 E1.88123
G1 X146.679 Y102.199 E1.89776
G1 X147.083 Y103.282 E1.9362
G1 X147.23 Y103.756 E1.95271
G1 X147.519 Y104.926 E1.99279
G1 X147.617 Y105.457 E2.01075
G1 X147.72 Y106.152 E2.03412
G1 X147.758 Y106.485 E2.04527
G1 X147.822 Y107.463 E2.07787
G1 X147.845 Y108.842 E2.12374
G1 X147.844 Y124.372 E2.64027
G1 X147.825 Y125.547 E2.67935
G1 X147.716 Y126.877 E2.72374
G1 X147.62 Y127.525 E2.74553
G1 X147.387 Y128.654 E2.78387
G1 X147.264 Y129.116 E2.79977
G1 X147.029 Y129.878 E2.82629
G1 X146.909 Y130.219 E2.83832
G1 X146.53 Y131.146 E2.87163
G1 X146.251 Y131.744 E2.89357
G1 X145.72 Y132.736 E2.931
G1 X145.544 Y133.025 E2.94225
G1 X145.181 Y133.58 E2.96431
G1 X144.749 Y134.176 E2.98879
G1 X144.555 Y134.427 E2.99934
G1 X144.069 Y135.009 E3.02456
G1 X143.517 Y135.609 E3.05168
G1 X142.966 Y136.171 E3.07786
G1 X141.163 Y138.061 E3.16473
G1 X140.466 Y138.842 E3.19955
G1 X140.327 Y138.984 E3.20616
G1 X139.426 Y139.973 E3.25066
G1 X138.789 Y140.613 E3.28069
G1 X138.097 Y141.194 E3.31074
G1 X137.357 Y141.712 E3.34079
G1 X136.453 Y142.224 E3.37534
G1 X135.746 Y142.578 E3.40164
G1 X133.961 Y143.493 E3.46835
G1 X133.14 Y143.869 E3.49839
G1 X132.662 Y144.049 E3.51538
G1 X131.944 Y144.299 E3.54066
G1 X130.914 Y144.633 E3.57668
G1 X130.043 Y144.871 E3.60671
G1 X129.118 Y145.036 E3.63796
G1 X128.493 Y145.118 E3.65893
G1 X127.467 Y145.201 E3.69316
G1 X126.793 Y145.216 E3.71558
G1 X114.677 Y145.215 E4.11856
G1 X112.049 Y145.252 E4.20598
G1 X109.247 Y145.366 E4.29925
G1 X108.366 Y145.383 E4.32856
G1 X107.635 Y145.378 E4.35287
G1 X106.485 Y145.294 E4.39122
G1 X106.009 Y145.232 E4.40719
G1 X105.424 Y145.141 E4.42688
G1 X104.54 Y144.956 E4.45692
G1 X103.676 Y144.694 E4.48695
G1 X103.092 Y144.468 E4.50778
G1 X102.452 Y144.197 E4.53089
G1 X101.735 Y143.86 E4.55724
G1 X100.949 Y143.453 E4.58668
G1 X99.855 Y142.911 E4.62729
G1 X98.502 Y142.217 E4.67787
G1 X97.716 Y141.773 E4.70789
G1 X96.972 Y141.261 E4.73793
G1 X96.276 Y140.685 E4.76798
G1 X95.538 Y139.945 E4.80274
G1 X94.536 Y138.831 E4.85257
G1 X92.698 Y136.852 E4.9424
G1 X91.382 Y135.502 E5.00511
G1 X90.73 Y134.766 E5.03781
G1 X90.305 Y134.236 E5.06041
G1 X89.766 Y133.506 E5.09059
G1 X89.334 Y132.821 E5.11753
G1 X89.206 Y132.602 E5.12596
G1 X88.879 Y131.997 E5.14884
G1 X88.696 Y131.629 E5.16251
G1 X88.437 Y131.067 E5.18309
G1 X88.262 Y130.654 E5.19801
G1 X87.931 Y129.756 E5.22984
G1 X87.696 Y128.969 E5.25716
G1 X87.591 Y128.564 E5.27107
G1 X87.392 Y127.606 E5.30361
G1 X87.326 Y127.191 E5.31759
G1 X87.239 Y126.486 E5.34122
G1 X87.211 Y126.169 E5.3518
G1 X87.172 Y125.427 E5.37651
G1 X87.156 Y124.376 E5.41148
G1 X87.156 Y108.611 E5.93582
G1 X87.175 Y107.438 E5.97484
G1 X87.23 Y106.536 E6.0049
G1 X87.292 Y106.059 E6.0209
G1 X87.394 Y105.393 E6.0433
G1 X87.612 Y104.34 E6.07907
G1 X87.706 Y103.983 E6.09135
G1 X87.877 Y103.405 E6.1114
G1 X87.972 Y103.115 E6.12155
G1 X88.211 Y102.461 E6.14471
G1 X88.533 Y101.707 E6.17198
G1 X88.671 Y101.414 E6.18275
G1 X88.981 Y100.81 E6.20533
G1 X89.213 Y100.392 E6.22123
G1 X89.684 Y99.625 E6.25117
G1 X89.906 Y99.297 E6.26434
G1 X90.697 Y98.274 E6.30735
G1 X91.631 Y97.213 E6.35436
G1 X92.581 Y96.176 E6.40114
G1 X94.252 Y94.25 E6.48595
G1 X95.905 Y92.235 E6.57263
G1 X96.565 Y91.397 E6.60811
G1 X97.155 Y90.713 E6.63815
G0 F6000 X96.852 Y90.452
G1 F1200 X97.551 Y89.774 E6.67054
G1 X98.28 Y89.184 E6.70174
G1 X99.029 Y88.679 E6.73178
G1 X99.882 Y88.208 E6.76419
G1 X100.708 Y87.843 E6.79422
G1 X101.63 Y87.53 E6.82661
G1 X102.542 Y87.309 E6.85782
G1 X103.435 Y87.174 E6.88786
G1 X104.432 Y87.114 E6.92108
G1 X105.537 Y87.103 E6.95783
G1 X106.254 Y87.114 E6.98168
G1 X107.168 Y87.167 E7.01214
G1 X108.531 Y87.307 E7.05771
G1 X111.067 Y87.526 E7.14237
G1 X113.622 Y87.674 E7.22749
G1 X116.119 Y87.748 E7.31058
G1 X118.665 Y87.752 E7.39526
G1 X121.197 Y87.684 E7.4795
G1 X123.675 Y87.547 E7.56205
G1 X127.028 Y87.252 E7.674
G1 X127.76 Y87.176 E7.69848
G1 X128.671 Y87.121 E7.72883
G1 X129.945 Y87.104 E7.77121
G1 X130.619 Y87.116 E7.79363
G1 X131.554 Y87.175 E7.82479
G1 X132.447 Y87.309 E7.85482
G1 X133.36 Y87.529 E7.88606
G1 X134.283 Y87.842 E7.91848
G1 X135.11 Y88.207 E7.94854
G1 X135.962 Y88.677 E7.98091
G1 X136.74 Y89.202 E8.01212
G1 X137.441 Y89.77 E8.04213
G1 X138.139 Y90.447 E8.07447
G1 X138.664 Y91.047 E8.10099
G1 X139.505 Y92.087 E8.14547
G1 X139.653 Y92.257 E8.15297
G1 X140.334 Y93.108 E8.18922
G1 X142.012 Y95.096 E8.27575
G1 X144.188 Y97.522 E8.38414
G1 X144.707 Y98.135 E8.41086
G1 X145.145 Y98.7 E8.43463
G1 X145.497 Y99.187 E8.45462
G1 X145.993 Y99.941 E8.48464
G1 X146.283 Y100.458 E8.50435
G1 X146.533 Y100.935 E8.52226
G1 X146.845 Y101.583 E8.54619
G1 X147.054 Y102.059 E8.56348
G1 X147.458 Y103.142 E8.60192
G1 X147.618 Y103.66 E8.61995
G1 X147.912 Y104.853 E8.66082
G1 X148.013 Y105.398 E8.67925
G1 X148.116 Y106.093 E8.70262
G1 X148.157 Y106.459 E8.71487
G1 X148.222 Y107.456 E8.7481
G1 X148.245 Y108.842 E8.79421
G1 X148.244 Y124.378 E9.31094
G1 X148.224 Y125.58 E9.35092
G1 X148.112 Y126.936 E9.39618
G1 X148.012 Y127.606 E9.41871
G1 X147.774 Y128.757 E9.4578
G1 X147.646 Y129.234 E9.47423
G1 X147.406 Y130.011 E9.50127
G1 X147.279 Y130.37 E9.51394
G1 X146.892 Y131.315 E9.5479
G1 X146.604 Y131.933 E9.57058
G1 X146.062 Y132.944 E9.60873
G1 X145.879 Y133.244 E9.62042
G1 X145.505 Y133.815 E9.64312
G1 X145.065 Y134.421 E9.66803
G1 X144.862 Y134.683 E9.67906
G1 X144.363 Y135.28 E9.70494
G1 X143.803 Y135.889 E9.73245
G1 X143.252 Y136.451 E9.75863
G1 X141.452 Y138.337 E9.84534
G1 X140.752 Y139.122 E9.88033
G1 X140.613 Y139.264 E9.88693
G1 X139.71 Y140.255 E9.93153
G1 X139.073 Y140.895 E9.96156
G1 X138.326 Y141.522 E9.994
G1 X137.586 Y142.04 E10.02404
G1 X136.632 Y142.582 E10.06053
G1 X135.925 Y142.936 E10.08683
G1 X134.128 Y143.857 E10.15399
G1 X133.307 Y144.233 E10.18403
G1 X132.794 Y144.427 E10.20227
G1 X132.076 Y144.677 E10.22756
G1 X131.019 Y145.019 E10.26451
G1 X130.113 Y145.265 E10.29573
G1 X129.17 Y145.433 E10.32759
G1 X128.525 Y145.517 E10.34922
G1 X127.476 Y145.601 E10.38422
G1 X126.793 Y145.616 E10.40695
G1 X114.683 Y145.615 E10.80973
G1 X112.065 Y145.652 E10.89681
G1 X109.255 Y145.766 E10.99035
G1 X108.363 Y145.783 E11.02002
G1 X107.606 Y145.777 E11.0452
G1 X106.433 Y145.691 E11.08432
G1 X105.948 Y145.627 E11.10059
G1 X105.342 Y145.533 E11.12099
G1 X104.458 Y145.348 E11.15103
G1 X103.56 Y145.077 E11.18222
G1 X102.936 Y144.836 E11.20447
G1 X102.282 Y144.559 E11.2281
G1 X101.551 Y144.215 E11.25497
G1 X100.765 Y143.808 E11.28441
G1 X99.672 Y143.267 E11.32497
G1 X98.305 Y142.565 E11.37608
G1 X97.489 Y142.103 E11.40727
G1 X96.745 Y141.591 E11.43731
G1 X96.021 Y140.993 E11.46854
G1 X95.241 Y140.212 E11.50525
G1 X94.243 Y139.103 E11.55487
G1 X92.405 Y137.124 E11.6447
G1 X91.083 Y135.767 E11.70772
G1 X90.418 Y135.016 E11.74108
G1 X89.983 Y134.474 E11.76419
G1 X89.444 Y133.744 E11.79438
G1 X88.989 Y133.023 E11.82273
G1 X88.854 Y132.792 E11.83163
G1 X88.521 Y132.175 E11.85495
G1 X88.333 Y131.796 E11.86902
G1 X88.069 Y131.223 E11.89001
G1 X87.887 Y130.792 E11.90557
G1 X87.548 Y129.87 E11.93824
G1 X87.309 Y129.069 E11.96604
G1 X87.199 Y128.645 E11.98061
G1 X86.997 Y127.669 E12.01376
G1 X86.929 Y127.24 E12.02821
G1 X86.841 Y126.521 E12.0523
G1 X86.812 Y126.19 E12.06335
G1 X86.772 Y125.433 E12.08856
G1 X86.756 Y124.382 E12.12352
G1 X86.756 Y108.605 E12.64827
G1 X86.776 Y107.414 E12.68789
G1 X86.833 Y106.484 E12.71888
G1 X86.897 Y105.998 E12.73518
G1 X87.002 Y105.312 E12.75826
G1 X87.225 Y104.238 E12.79475
G1 X87.322 Y103.87 E12.8074
G1 X87.497 Y103.28 E12.82787
G1 X87.596 Y102.978 E12.83844
G1 X87.843 Y102.304 E12.86232
G1 X88.171 Y101.537 E12.89006
G1 X88.315 Y101.231 E12.90131
G1 X88.631 Y100.616 E12.92431
G1 X88.872 Y100.183 E12.94079
G1 X89.353 Y99.401 E12.97133
G1 X89.59 Y99.052 E12.98536
G1 X90.381 Y98.029 E13.02837
G1 X91.336 Y96.943 E13.07647
G1 X92.286 Y95.906 E13.12324
G1 X93.95 Y93.988 E13.2077
G1 X95.596 Y91.981 E13.29403
G1 X96.262 Y91.136 E13.32982
G1 X96.852 Y90.452 E13.35986
G0 F6000 X96.549 Y90.191
G1 F1200 X97.299 Y89.463 E13.39462
G1 X98.056 Y88.852 E13.42698
G1 X98.805 Y88.347 E13.45703
G1 X99.72 Y87.842 E13.49179
G1 X100.579 Y87.464 E13.523
G1 X101.536 Y87.141 E13.55659
G1 X102.482 Y86.913 E13.58896
G1 X103.375 Y86.778 E13.619
G1 X104.428 Y86.714 E13.65409
G1 X105.543 Y86.703 E13.69117
G1 X106.277 Y86.715 E13.71559
G1 X107.209 Y86.769 E13.74664
G1 X108.565 Y86.908 E13.79198
G1 X111.101 Y87.128 E13.87664
G1 X113.634 Y87.274 E13.96103
G1 X116.131 Y87.348 E14.04412
G1 X118.655 Y87.352 E14.12806
G1 X121.186 Y87.284 E14.21228
G1 X123.649 Y87.148 E14.29432
G1 X126.987 Y86.854 E14.40577
G1 X127.736 Y86.777 E14.43082
G1 X128.666 Y86.721 E14.4618
G1 X129.952 Y86.704 E14.50458
G1 X130.644 Y86.717 E14.5276
G1 X131.613 Y86.779 E14.55989
G1 X132.506 Y86.913 E14.58993
G1 X133.454 Y87.14 E14.62235
G1 X134.445 Y87.476 E14.65715
G1 X135.272 Y87.841 E14.68722
G1 X136.186 Y88.345 E14.72194
G1 X136.964 Y88.87 E14.75315
G1 X137.693 Y89.459 E14.78432
G1 X138.44 Y90.184 E14.81895
G1 X138.975 Y90.795 E14.84596
G1 X139.807 Y91.824 E14.88997
G1 X139.965 Y92.007 E14.89801
G1 X140.64 Y92.85 E14.93393
G1 X142.31 Y94.829 E15.02006
G1 X144.493 Y97.264 E15.12883
G1 X145.023 Y97.89 E15.15611
G1 X145.469 Y98.466 E15.18034
G1 X145.831 Y98.967 E15.2009
G1 X146.342 Y99.745 E15.23185
G1 X146.637 Y100.272 E15.25194
G1 X146.893 Y100.761 E15.2703
G1 X147.211 Y101.422 E15.2947
G1 X147.429 Y101.919 E15.31275
G1 X147.833 Y103.002 E15.35119
G1 X148.006 Y103.564 E15.37075
G1 X148.305 Y104.78 E15.4124
G1 X148.409 Y105.339 E15.43131
G1 X148.514 Y106.048 E15.45515
G1 X148.555 Y106.414 E15.4674
G1 X148.622 Y107.449 E15.5019
G1 X148.645 Y108.842 E15.54823
G1 X148.644 Y124.385 E16.0652
G1 X148.623 Y125.613 E16.10604
G1 X148.508 Y126.995 E16.15217
G1 X148.404 Y127.687 E16.17544
G1 X148.166 Y128.838 E16.21454
G1 X148.028 Y129.352 E16.23224
G1 X147.783 Y130.144 E16.25981
G1 X147.649 Y130.522 E16.27315
G1 X147.255 Y131.484 E16.30773
G1 X146.957 Y132.122 E16.33115
G1 X146.415 Y133.133 E16.3693
G1 X146.214 Y133.463 E16.38215
G1 X145.829 Y134.05 E16.4055
G1 X145.381 Y134.666 E16.43083
G1 X145.169 Y134.94 E16.44236
G1 X144.657 Y135.551 E16.46887
G1 X144.089 Y136.169 E16.49679
G1 X143.538 Y136.731 E16.52296
G1 X141.751 Y138.603 E16.60904
G1 X141.038 Y139.402 E16.64466
G1 X140.899 Y139.544 E16.65127
G1 X139.994 Y140.537 E16.69595
G1 X139.357 Y141.177 E16.72599
G1 X138.555 Y141.85 E16.76081
G1 X137.784 Y142.388 E16.79208
G1 X136.811 Y142.94 E16.82929
G1 X136.104 Y143.294 E16.85558
G1 X134.295 Y144.221 E16.92319
G1 X133.474 Y144.597 E16.95323
G1 X132.926 Y144.805 E16.97272
G1 X132.199 Y145.058 E16.99832
G1 X131.124 Y145.405 E17.03589
G1 X130.183 Y145.659 E17.06831
G1 X129.222 Y145.83 E17.10078
G1 X128.557 Y145.916 E17.12308
G1 X127.485 Y146.001 E17.15885
G1 X126.793 Y146.016 E17.18187
G1 X114.689 Y146.015 E17.58445
G1 X112.081 Y146.052 E17.6712
G1 X109.271 Y146.166 E17.76474
G1 X108.36 Y146.183 E17.79504
G1 X107.577 Y146.176 E17.82109
G1 X106.381 Y146.088 E17.86097
G1 X105.887 Y146.022 E17.87755
G1 X105.26 Y145.925 E17.89865
G1 X104.376 Y145.74 E17.92869
G1 X103.444 Y145.46 E17.96106
G1 X102.78 Y145.204 E17.98473
G1 X102.112 Y144.921 E18.00886
G1 X101.367 Y144.57 E18.03625
G1 X100.581 Y144.163 E18.06569
G1 X99.489 Y143.623 E18.10621
G1 X98.108 Y142.913 E18.15785
G1 X97.262 Y142.433 E18.1902
G1 X96.518 Y141.921 E18.22024
G1 X95.738 Y141.276 E18.25391
G1 X94.944 Y140.48 E18.2913
G1 X93.946 Y139.371 E18.34092
G1 X92.118 Y137.403 E18.43026
G1 X90.796 Y136.046 E18.49327
G1 X90.106 Y135.266 E18.52791
G1 X89.661 Y134.712 E18.55154
G1 X89.122 Y133.982 E18.58172
G1 X88.644 Y133.225 E18.6115
G1 X88.502 Y132.982 E18.62086
G1 X88.163 Y132.353 E18.64463
G1 X87.97 Y131.963 E18.6591
G1 X87.701 Y131.379 E18.68049
G1 X87.512 Y130.93 E18.69669
G1 X87.165 Y129.984 E18.7302
G1 X86.922 Y129.169 E18.75849
G1 X86.807 Y128.726 E18.77371
G1 X86.602 Y127.732 E18.80747
G1 X86.532 Y127.289 E18.82239
G1 X86.443 Y126.556 E18.84694
G1 X86.413 Y126.211 E18.85846
G1 X86.372 Y125.439 E18.88418
G1 X86.356 Y124.388 E18.91914
G1 X86.356 Y108.598 E19.44431
G1 X86.377 Y107.39 E19.4845
G1 X86.436 Y106.432 E19.51642
G1 X86.502 Y105.937 E19.53303
G1 X86.61 Y105.231 E19.55679
G1 X86.838 Y104.136 E19.59399
G1 X86.939 Y103.756 E19.60706
G1 X87.117 Y103.155 E19.62791
G1 X87.22 Y102.84 E19.63893
G1 X87.475 Y102.147 E19.66349
G1 X87.809 Y101.367 E19.69172
G1 X87.959 Y101.048 E19.70344
G1 X88.281 Y100.421 E19.72688
G1 X88.531 Y99.973 E19.74395
G1 X89.022 Y99.176 E19.77508
G1 X89.259 Y98.827 E19.78911
G1 X90.065 Y97.784 E19.83295
G1 X91.041 Y96.673 E19.88214
G1 X91.991 Y95.636 E19.92892
G1 X93.648 Y93.726 E20.01302
G1 X95.287 Y91.727 E20.099
G1 X95.959 Y90.875 E20.13509
G1 X96.549 Y90.191 E20.16513
G1 F2700 E15.16513
G0 F6000 X104.526 Y97.651
G0 X104.771 Y97.903
G1 F2700 E20.16513
G1 F1200 X105.893 Y97.902 E20.20245
G1 X105.894 Y98.1 E20.20903
G1 X105.846 Y98.1 E20.21063
G1 X105.597 Y98.101 E20.21891
G1 X105.376 Y98.102 E20.22626
G1 X105.179 Y98.103 E20.23282
G1 X105.004 Y98.104 E20.23864
G1 X104.998 Y98.106 E20.23885
G1 X104.836 Y98.106 E20.24423
G1 X104.773 Y98.126 E20.24643
G1 X104.771 Y97.903 E20.25385
G0 F6000 X104.639 Y98.695
G1 F1200 X104.933 Y132.112 E21.36535
G1 X104.935 Y132.139 E21.36625
G1 X105.027 Y132.766 E21.38733
G1 X105.042 Y132.817 E21.38909
G1 X105.302 Y133.409 E21.4106
G1 X105.317 Y133.437 E21.41166
G1 X105.533 Y133.772 E21.42491
G1 X105.551 Y133.797 E21.42594
G1 X105.812 Y134.091 E21.43901
G1 X105.832 Y134.11 E21.43993
G1 X106.134 Y134.367 E21.45312
G1 X106.16 Y134.386 E21.45419
G1 X106.509 Y134.599 E21.46779
G1 X106.532 Y134.611 E21.46865
G1 X106.993 Y134.815 E21.48542
G1 X107.034 Y134.828 E21.48685
G1 X107.461 Y134.915 E21.50134
G1 X107.48 Y134.918 E21.50198
G1 X107.796 Y134.952 E21.51255
G1 X107.817 Y134.953 E21.51325
G1 X108.73 Y134.953 E21.54362
G1 X108.71 Y134.989 E21.54499
G1 X107.782 Y134.989 E21.57586
G1 X107.098 Y134.888 E21.59885
G1 X106.524 Y134.64 E21.61965
