;FLAVOR:Marlin
;TIME:5864
;Filament used: 1.60106m
;Layer height: 0.06
;MINX:97.061
;MINY:78.397
;MINZ:0.2
;MAXX:152.945
;MAXY:127.598
;MAXZ:7.34
;Generated with Cura_SteamEngine 5.3.0
M82 ;absolute extrusion mode
G21 ; set units to millimeters
G90 ; use absolute positioning
M82 ; absolute extrusion mode
M104 S210 ; set extruder temp
M140 S70 ; set bed temp
M190 S70 ; wait for bed temp
M109 S210 ; wait for extruder temp
G28 W ; home all without mesh bed level
G80 ; mesh bed leveling
G92 E0.0 ; reset extruder distance position
G1 Y-3.0 F1000.0 ; go outside print area
G1 X60.0 E9.0 F1000.0 ; intro line
G1 X100.0 E21.5 F1000.0 ; intro line
G92 E0.0 ; reset extruder distance position
G92 E0
G92 E0
G1 F2100 E-3
;LAYER_COUNT:120
;LAYER:0
M107
G0 F3600 X99.799 Y87.467 Z0.2
;TYPE:SKIRT
G1 F2100 E0
G1 F1800 X101.397 Y85.897 E0.07451
G1 X102.436 Y85.056 E0.11897
G1 X104.362 Y84.04 E0.19139
G1 X106.519 Y83.739 E0.26383
G1 X107.319 Y83.768 E0.29046
G1 X108.295 Y81.875 E0.36129
G1 X109.099 Y80.835 E0.40502
G1 X110.471 Y79.705 E0.46413
G1 X112.252 Y78.795 E0.53065
G1 X114.184 Y78.397 E0.59626
G1 X135.816 Y78.397 E1.31575
G1 X137.844 Y78.812 E1.3846
G1 X139.613 Y79.744 E1.4511
G1 X140.659 Y80.617 E1.49641
G1 X141.749 Y81.962 E1.55399
G1 X142.647 Y83.77 E1.62114
G1 X143.368 Y83.672 E1.64534
G1 X145.956 Y84.16 E1.73293
G1 X147.902 Y85.328 E1.80842
G1 X148.397 Y85.717 E1.82936
G1 X150.196 Y87.457 E1.9126
G1 X151.256 Y89.159 E1.97929
G1 X152.277 Y91.41 E2.0615
G1 X152.536 Y92.284 E2.09182
G1 X152.945 Y95.22 E2.19042
G1 X152.941 Y113.874 E2.81085
G1 X152.326 Y116.427 E2.89819
G1 X151.98 Y117.37 E2.9316
G1 X150.876 Y119.605 E3.01451
G1 X149.114 Y121.707 E3.10574
G1 X147.155 Y123.259 E3.18887
G1 X145.226 Y124.145 E3.25947
G1 X143.082 Y124.485 E3.33167
G1 X141.31 Y124.286 E3.39098
G1 X140.996 Y124.203 E3.40178
G1 X140.213 Y125.073 E3.44071
G1 X138.626 Y126.4 E3.50951
G1 X136.631 Y127.243 E3.58155
G1 X134.821 Y127.591 E3.64285
G1 X128.694 Y127.598 E3.84664
G1 X114.959 Y127.591 E4.30346
G1 X112.994 Y127.132 E4.37058
G1 X111.122 Y126.237 E4.43959
G1 X109.479 Y124.77 E4.51285
G1 X109.022 Y124.178 E4.53773
G1 X107.731 Y124.455 E4.58164
G1 X105.336 Y124.318 E4.66143
G1 X103.019 Y123.386 E4.7445
G1 X100.825 Y121.658 E4.83738
G1 X99.41 Y119.887 E4.91278
G1 X98.618 Y118.61 E4.96276
G1 X97.711 Y116.54 E5.03793
G1 X97.429 Y115.556 E5.07197
G1 X97.061 Y112.852 E5.16274
G1 X97.076 Y94.869 E5.76085
G1 X97.382 Y92.562 E5.83826
G1 X97.942 Y90.83 E5.8988
G1 X98.587 Y89.437 E5.94986
G1 X99.799 Y87.467 E6.02679
G0 F3600 X100.115 Y87.718
G1 F1800 X101.649 Y86.208 E6.09838
G1 X102.657 Y85.392 E6.14151
G1 X104.488 Y84.426 E6.21037
G1 X106.537 Y84.14 E6.27918
G1 X107.657 Y84.182 E6.31646
G1 X107.73 Y83.845 E6.32793
G1 X108.635 Y82.09 E6.3936
G1 X109.388 Y81.115 E6.43458
G1 X110.692 Y80.041 E6.49076
G1 X112.384 Y79.176 E6.55397
G1 X114.226 Y78.797 E6.61652
G1 X135.775 Y78.797 E7.33324
G1 X137.709 Y79.193 E7.3989
G1 X139.39 Y80.078 E7.46208
G1 X140.371 Y80.897 E7.50459
G1 X141.412 Y82.181 E7.55957
G1 X142.253 Y83.875 E7.62247
G1 X142.331 Y84.216 E7.6341
G1 X143.357 Y84.077 E7.66854
G1 X145.812 Y84.54 E7.75163
G1 X147.656 Y85.643 E7.8231
G1 X148.119 Y86.005 E7.84265
G1 X149.883 Y87.711 E7.92427
G1 X150.916 Y89.37 E7.98927
G1 X151.893 Y91.524 E8.06794
G1 X152.152 Y92.398 E8.09826
G1 X152.545 Y95.22 E8.19302
G1 X152.541 Y113.827 E8.81189
G1 X151.95 Y116.289 E8.89611
G1 X151.604 Y117.232 E8.92951
G1 X150.539 Y119.384 E9.00938
G1 X148.833 Y121.419 E9.0977
G1 X146.945 Y122.915 E9.17782
G1 X145.107 Y123.759 E9.24509
G1 X143.075 Y124.081 E9.31351
G1 X141.355 Y123.888 E9.37108
G1 X140.864 Y123.75 E9.38804
G1 X139.956 Y124.766 E9.43336
G1 X138.413 Y126.056 E9.50026
G1 X136.517 Y126.857 E9.56872
G1 X134.781 Y127.191 E9.62751
G1 X128.694 Y127.198 E9.82997
G1 X115.007 Y127.191 E10.2852
G1 X113.127 Y126.752 E10.34941
G1 X111.343 Y125.899 E10.41518
G1 X109.775 Y124.499 E10.4851
G1 X109.185 Y123.734 E10.51723
G1 X107.699 Y124.053 E10.56778
G1 X105.425 Y123.923 E10.64354
G1 X103.222 Y123.037 E10.72251
G1 X101.11 Y121.373 E10.81194
G1 X99.723 Y119.637 E10.88585
G1 X98.958 Y118.4 E10.93422
G1 X98.096 Y116.43 E11.00574
G1 X97.814 Y115.446 E11.03979
G1 X97.461 Y112.852 E11.12686
G1 X97.473 Y94.922 E11.72321
G1 X97.774 Y92.65 E11.79944
G1 X98.323 Y90.953 E11.85876
G1 X98.928 Y89.647 E11.90663
G1 X100.115 Y87.718 E11.98197
G0 F3600 X100.431 Y87.968
G1 F1800 X101.901 Y86.519 E12.05062
G1 X102.878 Y85.728 E12.09243
G1 X104.614 Y84.812 E12.15771
G1 X106.555 Y84.541 E12.2229
G1 X107.996 Y84.596 E12.27086
G1 X108.086 Y84.028 E12.28999
G1 X108.975 Y82.304 E12.3545
G1 X109.677 Y81.396 E12.39268
G1 X110.913 Y80.377 E12.44596
G1 X112.516 Y79.557 E12.50584
G1 X114.268 Y79.197 E12.56533
G1 X135.734 Y79.197 E13.27929
G1 X137.574 Y79.574 E13.34176
G1 X139.167 Y80.412 E13.40163
G1 X140.083 Y81.177 E13.44133
G1 X141.075 Y82.4 E13.4937
G1 X141.895 Y84.053 E13.55507
G1 X142.005 Y84.664 E13.57572
G1 X143.346 Y84.482 E13.62073
G1 X145.669 Y84.92 E13.69936
G1 X147.451 Y85.986 E13.76842
G1 X147.841 Y86.293 E13.78493
G1 X149.57 Y87.965 E13.86493
G1 X150.576 Y89.581 E13.92824
G1 X151.509 Y91.638 E14.00336
G1 X151.768 Y92.512 E14.03368
G1 X152.145 Y95.22 E14.12462
G1 X152.141 Y113.78 E14.74193
G1 X151.574 Y116.151 E14.82301
G1 X151.228 Y117.094 E14.85642
G1 X150.203 Y119.162 E14.93319
G1 X148.552 Y121.131 E15.01865
G1 X146.732 Y122.573 E15.09588
G1 X144.991 Y123.373 E15.15961
G1 X143.068 Y123.677 E15.22436
G1 X141.4 Y123.49 E15.28019
G1 X140.694 Y123.283 E15.30466
G1 X140.585 Y123.462 E15.31163
G1 X139.699 Y124.459 E15.35599
G1 X138.2 Y125.712 E15.42097
G1 X136.402 Y126.472 E15.4859
G1 X134.742 Y126.791 E15.54212
G1 X128.694 Y126.798 E15.74328
G1 X115.055 Y126.791 E16.19691
G1 X113.26 Y126.372 E16.25822
G1 X111.564 Y125.561 E16.32075
G1 X110.071 Y124.228 E16.38732
G1 X109.348 Y123.29 E16.42671
G1 X107.667 Y123.651 E16.48389
G1 X105.514 Y123.528 E16.55562
G1 X103.425 Y122.688 E16.6305
G1 X101.395 Y121.089 E16.71645
G1 X100.036 Y119.387 E16.78889
G1 X99.299 Y118.19 E16.83565
G1 X98.481 Y116.32 E16.90353
G1 X98.199 Y115.336 E16.93758
G1 X97.861 Y112.852 E17.02096
G1 X97.87 Y94.974 E17.61558
G1 X98.166 Y92.738 E17.6906
G1 X98.704 Y91.076 E17.7487
G1 X99.269 Y89.857 E17.79339
G1 X100.431 Y87.968 E17.86715
G0 F3600 X100.747 Y88.218
G1 F1800 X102.153 Y86.83 E17.93287
G1 X103.099 Y86.064 E17.97335
G1 X104.74 Y85.198 E18.03507
G1 X106.572 Y84.942 E18.09659
G1 X108.08 Y85 E18.14678
G1 X108.325 Y85.07 E18.15526
G1 X108.471 Y84.155 E18.18608
G1 X109.313 Y82.522 E18.24719
G1 X109.968 Y81.674 E18.28282
G1 X111.134 Y80.713 E18.33308
G1 X112.649 Y79.938 E18.38968
G1 X114.309 Y79.597 E18.44604
G1 X135.693 Y79.597 E19.15728
G1 X137.439 Y79.955 E19.21656
G1 X138.944 Y80.747 E19.27312
G1 X139.795 Y81.457 E19.30998
G1 X140.738 Y82.619 E19.35976
G1 X141.511 Y84.178 E19.41763
G1 X141.679 Y85.112 E19.4492
G1 X143.335 Y84.887 E19.50478
G1 X145.526 Y85.3 E19.57894
G1 X147.205 Y86.302 E19.64397
G1 X147.563 Y86.581 E19.65907
G1 X149.257 Y88.219 E19.73744
G1 X150.236 Y89.792 E19.79907
G1 X151.125 Y91.752 E19.87065
G1 X151.384 Y92.626 E19.90097
G1 X151.745 Y95.22 E19.98808
G1 X151.741 Y113.733 E20.60382
G1 X151.198 Y116.013 E20.68177
G1 X150.852 Y116.956 E20.71518
G1 X149.866 Y118.942 E20.78893
G1 X148.271 Y120.844 E20.87149
G1 X146.522 Y122.23 E20.94571
G1 X144.876 Y122.986 E21.00596
G1 X143.057 Y123.274 E21.06721
G1 X141.482 Y123.097 E21.11993
G1 X140.494 Y122.808 E21.15416
G1 X140.286 Y123.196 E21.16881
G1 X139.4 Y124.193 E21.21317
G1 X137.989 Y125.367 E21.27422
G1 X136.288 Y126.086 E21.33564
G1 X134.702 Y126.391 E21.38936
G1 X128.694 Y126.398 E21.58919
G1 X115.103 Y126.391 E22.04122
G1 X113.393 Y125.992 E22.09963
G1 X111.785 Y125.223 E22.15891
G1 X110.367 Y123.957 E22.22213
G1 X109.616 Y122.983 E22.26304
G1 X109.508 Y122.778 E22.27075
G1 X109.211 Y122.91 E22.28156
G1 X107.635 Y123.249 E22.33518
G1 X105.603 Y123.133 E22.40287
G1 X103.626 Y122.338 E22.47374
G1 X101.679 Y120.805 E22.55616
G1 X100.377 Y119.177 E22.6255
G1 X99.64 Y117.98 E22.67225
G1 X98.866 Y116.21 E22.73651
G1 X98.584 Y115.226 E22.77055
G1 X98.261 Y112.852 E22.85024
G1 X98.267 Y95.027 E23.4431
G1 X98.559 Y92.824 E23.51701
G1 X99.067 Y91.244 E23.57221
G1 X99.61 Y90.067 E23.61533
G1 X100.747 Y88.218 E23.68752
G0 F3600 X101.065 Y88.466
G1 F1800 X102.405 Y87.141 E23.7502
G1 X103.32 Y86.4 E23.78936
G1 X104.866 Y85.584 E23.8475
G1 X106.589 Y85.343 E23.90537
G1 X108.065 Y85.4 E23.9545
G1 X108.643 Y85.614 E23.975
G1 X108.856 Y84.282 E24.01986
G1 X109.653 Y82.736 E24.07771
G1 X110.257 Y81.955 E24.11055
G1 X111.356 Y81.049 E24.15792
G1 X112.782 Y80.319 E24.2112
G1 X114.35 Y79.997 E24.26444
G1 X135.652 Y79.997 E24.97295
G1 X137.304 Y80.336 E25.02904
G1 X138.721 Y81.082 E25.0823
G1 X139.507 Y81.737 E25.11633
G1 X140.401 Y82.838 E25.16351
G1 X141.127 Y84.303 E25.21789
G1 X141.353 Y85.56 E25.26037
G1 X143.324 Y85.292 E25.32652
G1 X145.382 Y85.68 E25.39618
G1 X146.959 Y86.618 E25.45721
G1 X147.317 Y86.897 E25.4723
G1 X148.942 Y88.47 E25.54753
G1 X149.896 Y90.003 E25.60758
G1 X150.741 Y91.866 E25.67562
G1 X151 Y92.74 E25.70594
G1 X151.345 Y95.22 E25.78922
G1 X151.341 Y113.687 E26.40343
G1 X150.822 Y115.875 E26.47823
G1 X150.476 Y116.818 E26.51163
G1 X149.53 Y118.719 E26.58226
G1 X147.99 Y120.556 E26.66199
G1 X146.309 Y121.888 E26.73332
G1 X144.76 Y122.6 E26.79002
G1 X143.051 Y122.87 E26.84757
G1 X141.527 Y122.699 E26.89858
G1 X140.672 Y122.444 E26.92825
G1 X140.323 Y122.253 E26.94148
G1 X139.986 Y122.931 E26.96667
G1 X139.144 Y123.885 E27.00899
G1 X137.776 Y125.023 E27.06817
G1 X136.174 Y125.7 E27.12602
G1 X134.662 Y125.991 E27.17723
G1 X128.694 Y125.998 E27.37573
G1 X115.151 Y125.991 E27.82617
G1 X113.526 Y125.612 E27.88167
G1 X112.006 Y124.885 E27.93771
G1 X110.663 Y123.686 E27.99759
G1 X109.933 Y122.739 E28.03736
G1 X109.694 Y122.24 E28.05576
G1 X109.127 Y122.519 E28.07678
G1 X107.603 Y122.847 E28.12863
G1 X105.692 Y122.738 E28.19229
G1 X103.827 Y121.988 E28.25915
G1 X101.963 Y120.52 E28.33806
G1 X100.718 Y118.967 E28.40426
G1 X99.981 Y117.77 E28.45102
G1 X99.251 Y116.1 E28.51164
G1 X98.969 Y115.116 E28.54568
G1 X98.661 Y112.852 E28.62168
G1 X98.664 Y95.079 E29.21281
G1 X98.951 Y92.91 E29.28558
G1 X99.431 Y91.411 E29.33793
G1 X99.951 Y90.277 E29.37942
G1 X101.065 Y88.466 E29.45014
G0 F3600 X101.38 Y88.716
G1 F1800 X102.657 Y87.452 E29.5099
G1 X103.541 Y86.736 E29.54774
G1 X104.992 Y85.97 E29.60231
G1 X106.606 Y85.744 E29.65652
G1 X108.049 Y85.8 E29.70455
G1 X109.003 Y86.196 E29.7389
G1 X109.006 Y85.874 E29.74961
G1 X109.241 Y84.406 E29.79906
G1 X109.99 Y82.954 E29.8534
G1 X110.544 Y82.238 E29.88351
G1 X111.58 Y81.383 E29.92819
G1 X112.915 Y80.7 E29.97806
G1 X114.391 Y80.397 E30.02818
G1 X135.611 Y80.397 E30.73396
G1 X137.169 Y80.717 E30.78686
G1 X138.498 Y81.417 E30.83682
G1 X139.222 Y82.02 E30.86816
G1 X140.062 Y83.054 E30.91247
G1 X140.743 Y84.428 E30.96347
G1 X140.989 Y85.797 E31.00974
G1 X140.993 Y86.16 E31.02181
G1 X141.5 Y85.943 E31.04015
G1 X143.313 Y85.697 E31.101
G1 X145.238 Y86.06 E31.16616
G1 X146.713 Y86.934 E31.22318
G1 X147.071 Y87.213 E31.23828
G1 X148.627 Y88.721 E31.31035
G1 X149.556 Y90.214 E31.36883
G1 X150.357 Y91.98 E31.43333
G1 X150.616 Y92.854 E31.46365
G1 X150.945 Y95.22 E31.5431
G1 X150.941 Y113.641 E32.15579
G1 X150.446 Y115.737 E32.22742
G1 X150.1 Y116.68 E32.26083
G1 X149.193 Y118.498 E32.3284
G1 X147.709 Y120.268 E32.40522
G1 X146.096 Y121.546 E32.47367
G1 X144.645 Y122.213 E32.52679
G1 X143.04 Y122.467 E32.58083
G1 X141.607 Y122.306 E32.62879
G1 X140.829 Y122.074 E32.6558
G1 X140.15 Y121.703 E32.68153
G1 X139.652 Y122.704 E32.71872
G1 X138.844 Y123.62 E32.75934
G1 X137.565 Y124.678 E32.81455
G1 X136.059 Y125.315 E32.86894
G1 X134.623 Y125.591 E32.91757
G1 X128.694 Y125.598 E33.11477
G1 X115.199 Y125.591 E33.56362
G1 X113.657 Y125.231 E33.61628
G1 X112.228 Y124.548 E33.66896
G1 X110.959 Y123.415 E33.72555
G1 X110.276 Y122.529 E33.76275
G1 X109.88 Y121.703 E33.79322
G1 X108.995 Y122.138 E33.82602
G1 X107.571 Y122.445 E33.87447
G1 X105.781 Y122.343 E33.9341
G1 X104.028 Y121.638 E33.99695
G1 X102.249 Y120.237 E34.07226
G1 X101.059 Y118.757 E34.13542
G1 X100.322 Y117.56 E34.18218
G1 X99.636 Y115.99 E34.23916
G1 X99.354 Y115.006 E34.27321
G1 X99.061 Y112.852 E34.34551
G1 X99.061 Y95.132 E34.93488
G1 X99.344 Y92.995 E35.00658
G1 X99.812 Y91.533 E35.05763
G1 X100.314 Y90.445 E35.09749
G1 X101.38 Y88.716 E35.16505
G0 F3600 X101.696 Y88.966
G1 F1800 X102.909 Y87.763 E35.22187
G1 X103.762 Y87.072 E35.25838
G1 X105.118 Y86.356 E35.30938
G1 X106.624 Y86.145 E35.35996
G1 X107.964 Y86.197 E35.40456
G1 X109.408 Y86.796 E35.45656
G1 X109.401 Y85.937 E35.48513
G1 X109.626 Y84.531 E35.53249
G1 X110.325 Y83.176 E35.5832
G1 X110.835 Y82.516 E35.61094
G1 X111.802 Y81.719 E35.65262
G1 X113.048 Y81.081 E35.69918
G1 X114.432 Y80.797 E35.74617
G1 X135.569 Y80.797 E36.44919
G1 X137.034 Y81.098 E36.49893
G1 X138.275 Y81.752 E36.54559
G1 X138.937 Y82.303 E36.57424
G1 X139.723 Y83.27 E36.61568
G1 X140.359 Y84.553 E36.66331
G1 X140.595 Y85.868 E36.70775
G1 X140.588 Y86.792 E36.73848
G1 X141.554 Y86.339 E36.77397
G1 X143.302 Y86.102 E36.83264
G1 X145.096 Y86.44 E36.89336
G1 X146.467 Y87.25 E36.94632
G1 X146.825 Y87.529 E36.96142
G1 X148.313 Y88.975 E37.03043
G1 X149.216 Y90.425 E37.08724
G1 X149.973 Y92.094 E37.1482
G1 X150.232 Y92.968 E37.17851
G1 X150.545 Y95.22 E37.25414
G1 X150.541 Y113.596 E37.86532
G1 X150.07 Y115.599 E37.93376
G1 X149.724 Y116.542 E37.96717
G1 X148.855 Y118.28 E38.0318
G1 X147.428 Y119.981 E38.10565
G1 X145.886 Y121.203 E38.17109
G1 X144.53 Y121.826 E38.22072
G1 X143.029 Y122.064 E38.27127
G1 X141.687 Y121.913 E38.31618
G1 X140.986 Y121.704 E38.34051
G1 X139.977 Y121.153 E38.37875
G1 X139.318 Y122.477 E38.42794
G1 X138.544 Y123.355 E38.46687
G1 X137.354 Y124.333 E38.5181
G1 X135.945 Y124.929 E38.56898
G1 X134.583 Y125.191 E38.61512
G1 X128.694 Y125.198 E38.81098
G1 X115.247 Y125.191 E39.25823
G1 X113.79 Y124.851 E39.308
G1 X112.449 Y124.21 E39.35743
G1 X111.255 Y123.144 E39.41067
G1 X110.619 Y122.319 E39.44531
G1 X110.054 Y121.14 E39.4888
G1 X109.923 Y121.235 E39.49418
G1 X108.861 Y121.758 E39.53355
G1 X107.539 Y122.043 E39.57853
G1 X105.87 Y121.948 E39.63413
G1 X104.229 Y121.288 E39.69296
G1 X102.532 Y119.952 E39.7648
G1 X101.4 Y118.547 E39.82481
G1 X100.663 Y117.35 E39.87156
G1 X100.021 Y115.88 E39.92491
G1 X99.739 Y114.896 E39.95896
G1 X99.461 Y112.852 E40.02757
G1 X99.458 Y95.185 E40.61518
G1 X99.737 Y93.08 E40.6858
G1 X100.193 Y91.655 E40.73556
G1 X100.655 Y90.655 E40.7722
G1 X101.696 Y88.966 E40.83819
G0 F3600 X102.012 Y89.216
G1 F1800 X103.161 Y88.074 E40.89207
G1 X103.983 Y87.408 E40.92726
G1 X105.244 Y86.742 E40.97469
G1 X106.642 Y86.546 E41.02164
G1 X107.879 Y86.594 E41.06282
G1 X109.356 Y87.207 E41.11601
G1 X109.814 Y87.527 E41.13459
G1 X109.801 Y85.967 E41.18648
G1 X110.011 Y84.656 E41.23064
G1 X110.662 Y83.394 E41.27787
G1 X111.122 Y82.799 E41.30288
G1 X112.026 Y82.053 E41.34186
G1 X113.181 Y81.462 E41.38502
G1 X114.473 Y81.197 E41.42888
G1 X135.528 Y81.197 E42.12918
G1 X136.897 Y81.478 E42.17566
G1 X138.054 Y82.088 E42.21916
G1 X138.652 Y82.586 E42.24504
G1 X139.384 Y83.486 E42.28363
G1 X139.975 Y84.678 E42.32788
G1 X140.195 Y85.904 E42.36931
G1 X140.182 Y87.545 E42.42389
G1 X140.602 Y87.227 E42.44141
G1 X141.669 Y86.727 E42.4806
G1 X143.291 Y86.507 E42.53505
G1 X144.952 Y86.82 E42.59126
G1 X146.221 Y87.566 E42.64022
G1 X146.579 Y87.845 E42.65532
G1 X147.999 Y89.228 E42.72125
G1 X148.876 Y90.636 E42.77642
G1 X149.589 Y92.208 E42.83383
G1 X149.848 Y93.082 E42.86415
G1 X150.145 Y95.22 E42.93594
G1 X150.141 Y113.547 E43.5455
G1 X149.694 Y115.461 E43.61087
G1 X149.348 Y116.404 E43.64428
G1 X148.517 Y118.061 E43.70594
G1 X147.147 Y119.694 E43.77683
G1 X145.676 Y120.86 E43.83926
G1 X144.414 Y121.44 E43.88546
G1 X143.023 Y121.66 E43.9323
G1 X141.764 Y121.519 E43.97444
G1 X141.142 Y121.333 E43.99603
G1 X140.012 Y120.716 E44.03885
G1 X139.729 Y120.461 E44.05152
G1 X139.609 Y121.003 E44.06998
G1 X138.983 Y122.252 E44.11645
G1 X138.244 Y123.09 E44.15361
G1 X137.144 Y123.988 E44.20084
G1 X135.83 Y124.544 E44.2483
