;FLAVOR:Marlin
;TIME:2317
;Filament used: 1.59758m
;Layer height: 0.16
;MINX:94.456
;MINY:93.78
;MINZ:0.2
;MAXX:157.545
;MAXY:157.247
;MAXZ:7.4
;Generated with Cura_SteamEngine 5.3.0
M82 ;absolute extrusion mode
;210 65

M140 S65; SET BED INITIAL TEMP
M104 S210; SET HOTEND INITIAL TEMP

G28; HOME

M190 S65; WAIT FOR BED TO REACH TEMP
M109 S210; WAIT FOR HOTEND TO REACH TEMP

G92 E0 ;Reset Extruder
G1 Z2.0 F3000 ;Move Z Axis up
G1 X10.1 Y20 Z0.3 F5000.0 ;Move to start position
G1 X10.1 Y200.0 Z0.3 F1500.0 E25 ;Draw the first line
G1 X10.4 Y200.0 Z0.3 F5000.0 ;Move to side a little
G1 X10.4 Y20 Z0.3 F1500.0 E40 ;Draw the second line
G1 E25 F3000 ;Retract a bit
G1 Z2.0 F3000 ;Move Z Axis up
G1 E30 F3000 ;Un-retract
G92 E0 ;Reset Extruder
G92 E0
G92 E0
G1 F3000 E-8
;LAYER_COUNT:46
;LAYER:0
M106 S25.5
M204 S3000
M205 X8 Y8
G1 F600 Z0.7
G0 F4800 X104.932 Y99.039 Z0.7
M204 S1000
;TYPE:SKIRT
G1 F600 Z0.2
G1 F3000 E0.12473
G1 F1500 X105.418 Y98.537 E0.14796
G1 X105.718 Y98.242 E0.16196
G1 X106.39 Y97.638 E0.19201
G1 X107.112 Y97.096 E0.22204
G1 X107.879 Y96.619 E0.25208
G1 X108.686 Y96.213 E0.28213
G1 X109.125 Y96.027 E0.29798
G1 X109.538 Y95.864 E0.31275
G1 X110.392 Y95.57 E0.34279
G1 X111.269 Y95.353 E0.37284
G1 X111.892 Y95.247 E0.39386
G1 X113.178 Y95.07 E0.43703
G1 X114.077 Y94.987 E0.46706
G1 X114.886 Y94.98 E0.49397
G1 X116.559 Y95.032 E0.54964
G1 X117.063 Y95.06 E0.56643
G1 X120.134 Y95.308 E0.66891
G1 X122.676 Y95.437 E0.75356
G1 X125.181 Y95.493 E0.8369
G1 X127.744 Y95.478 E0.92215
G1 X130.248 Y95.392 E1.00548
G1 X133.604 Y95.169 E1.11735
G1 X134.883 Y95.061 E1.16004
G1 X135.744 Y95.025 E1.1887
G1 X136.617 Y95.026 E1.21774
G1 X137.438 Y95.04 E1.24505
G1 X137.846 Y95.056 E1.25863
G1 X138.931 Y95.118 E1.29477
G1 X139.829 Y95.209 E1.32479
G1 X140.716 Y95.38 E1.35484
G1 X141.361 Y95.556 E1.37708
G1 X142.212 Y95.819 E1.4067
G1 X143.062 Y96.123 E1.43673
G1 X143.882 Y96.502 E1.46677
G1 X144.665 Y96.952 E1.49681
G1 X145.405 Y97.469 E1.52683
G1 X146.097 Y98.049 E1.55686
G1 X146.677 Y98.626 E1.58407
G1 X147.102 Y99.084 E1.60486
G1 X147.582 Y99.631 E1.62906
G1 X148.141 Y100.34 E1.65909
G1 X148.577 Y100.999 E1.68537
G1 X148.941 Y101.599 E1.70871
G1 X149.613 Y102.74 E1.75276
G1 X150.962 Y104.89 E1.83718
G1 X152.385 Y107.025 E1.92251
G1 X153.609 Y108.775 E1.99354
G1 X153.948 Y109.293 E2.01413
G1 X154.266 Y109.812 E2.03438
G1 X154.704 Y110.602 E2.06442
G1 X154.916 Y111.058 E2.08115
G1 X155.182 Y111.667 E2.10325
G1 X155.572 Y112.713 E2.14038
G1 X155.732 Y113.226 E2.15825
G1 X156.039 Y114.485 E2.20135
G1 X156.144 Y115.078 E2.22138
G1 X156.265 Y115.943 E2.25043
G1 X156.321 Y116.899 E2.28229
G1 X156.345 Y118.31 E2.32922
G1 X156.343 Y133.921 E2.84845
G1 X156.331 Y134.793 E2.87745
G1 X156.301 Y135.49 E2.90066
G1 X156.225 Y136.286 E2.92725
G1 X156.174 Y136.664 E2.93994
G1 X156.005 Y137.594 E2.97138
G1 X155.858 Y138.231 E2.99312
G1 X155.484 Y139.48 E3.03648
G1 X155.324 Y139.912 E3.05181
G1 X155.045 Y140.59 E3.07619
G1 X154.9 Y140.909 E3.08785
G1 X154.398 Y141.873 E3.124
G1 X154.022 Y142.51 E3.1486
G1 X153.529 Y143.266 E3.17862
G1 X153.183 Y143.722 E3.19765
G1 X152.807 Y144.189 E3.2176
G1 X152.505 Y144.547 E3.23317
G1 X150.783 Y146.496 E3.31967
G1 X148.517 Y149.231 E3.43781
G1 X148.139 Y149.705 E3.45797
G1 X147.545 Y150.385 E3.488
G1 X147.088 Y150.836 E3.50936
G1 X146.504 Y151.376 E3.53581
G1 X145.582 Y152.189 E3.5767
G1 X144.654 Y152.961 E3.61685
G1 X143.935 Y153.508 E3.64689
G1 X143.17 Y153.988 E3.67693
G1 X142.365 Y154.4 E3.70701
G1 X141.874 Y154.624 E3.72496
G1 X141.143 Y154.938 E3.75142
G1 X140.297 Y155.254 E3.78146
G1 X139.761 Y155.412 E3.80004
G1 X139.002 Y155.609 E3.82612
G1 X138.687 Y155.683 E3.83689
G1 X137.799 Y155.85 E3.86694
G1 X137.074 Y155.928 E3.89119
G1 X136.405 Y155.965 E3.91348
G1 X135.632 Y155.986 E3.9392
G1 X135.215 Y155.989 E3.95307
G1 X134.631 Y155.981 E3.97249
G1 X134.203 Y155.966 E3.98674
G1 X131.633 Y155.823 E4.07235
G1 X127.677 Y155.739 E4.20395
G1 X124.299 Y155.739 E4.31631
G1 X121.693 Y155.776 E4.40299
G1 X119.121 Y155.885 E4.48861
G1 X117.025 Y156.026 E4.55848
G1 X116.122 Y156.047 E4.58853
G1 X115.221 Y155.987 E4.61856
G1 X114.736 Y155.922 E4.63484
G1 X114.052 Y155.813 E4.65787
G1 X113.432 Y155.7 E4.67883
G1 X112.475 Y155.47 E4.71157
G1 X111.9 Y155.302 E4.73149
G1 X111.046 Y155.01 E4.76151
G1 X110.528 Y154.791 E4.78022
G1 X110.118 Y154.604 E4.79521
G1 X108.993 Y154.003 E4.83763
G1 X108.277 Y153.561 E4.86561
G1 X107.53 Y153.053 E4.89566
G1 X107.111 Y152.722 E4.91342
G1 X105.997 Y151.794 E4.96164
G1 X105.2 Y151.111 E4.99655
G1 X104.541 Y150.494 E5.02658
G1 X103.925 Y149.803 E5.05737
G1 X103.362 Y149.111 E5.08704
G1 X102.762 Y148.351 E5.11925
G1 X101.142 Y146.413 E5.20326
G1 X99.479 Y144.531 E5.28679
G1 X99.05 Y144.012 E5.30919
G1 X98.605 Y143.436 E5.3334
G1 X98.085 Y142.698 E5.36342
G1 X97.704 Y142.051 E5.3884
G1 X97.325 Y141.35 E5.4149
G1 X96.837 Y140.31 E5.45311
G1 X96.696 Y139.96 E5.46566
G1 X96.419 Y139.185 E5.49303
G1 X96.308 Y138.829 E5.50544
G1 X96.064 Y137.893 E5.53761
G1 X95.934 Y137.275 E5.55861
G1 X95.777 Y136.285 E5.59195
G1 X95.739 Y135.938 E5.60356
G1 X95.68 Y135.013 E5.63439
G1 X95.656 Y133.618 E5.6808
G1 X95.656 Y117.993 E6.20048
G1 X95.669 Y117.097 E6.23029
G1 X95.698 Y116.435 E6.25233
G1 X95.78 Y115.6 E6.28023
G1 X95.852 Y115.087 E6.29746
G1 X96.077 Y113.956 E6.33582
G1 X96.221 Y113.398 E6.35499
G1 X96.479 Y112.551 E6.38443
G1 X96.592 Y112.231 E6.39572
G1 X97.019 Y111.205 E6.43268
G1 X97.325 Y110.569 E6.45616
G1 X97.956 Y109.443 E6.49909
G1 X98.282 Y108.94 E6.51903
G1 X99.497 Y107.199 E6.58964
G1 X100.962 Y105.026 E6.6768
G1 X102.34 Y102.848 E6.76253
G1 X103.318 Y101.214 E6.82586
G1 X103.698 Y100.61 E6.8496
G1 X104.216 Y99.871 E6.87961
G1 X104.932 Y99.039 E6.91612
M204 S3000
G0 F4800 X104.629 Y98.778
M204 S1000
G1 F1500 X105.138 Y98.252 E6.94047
G1 X105.451 Y97.945 E6.95505
G1 X106.15 Y97.318 E6.98628
G1 X106.901 Y96.756 E7.01748
G1 X107.668 Y96.279 E7.04752
G1 X108.53 Y95.845 E7.07962
G1 X108.978 Y95.655 E7.0958
G1 X109.408 Y95.486 E7.11117
G1 X110.296 Y95.182 E7.14239
G1 X111.202 Y94.959 E7.17342
G1 X111.837 Y94.851 E7.19485
G1 X113.141 Y94.672 E7.23862
G1 X114.074 Y94.587 E7.26978
G1 X114.898 Y94.58 E7.29719
G1 X116.581 Y94.633 E7.3532
G1 X117.095 Y94.661 E7.37032
G1 X120.166 Y94.91 E7.47279
G1 X122.685 Y95.037 E7.55668
G1 X125.188 Y95.093 E7.63995
G1 X127.73 Y95.078 E7.7245
G1 X130.234 Y94.992 E7.80783
G1 X133.57 Y94.77 E7.91904
G1 X134.866 Y94.661 E7.96229
G1 X135.744 Y94.625 E7.99152
G1 X136.624 Y94.626 E8.02079
G1 X137.454 Y94.64 E8.0484
G1 X138.971 Y94.72 E8.09892
G1 X139.905 Y94.816 E8.13015
G1 X140.792 Y94.987 E8.1602
G1 X141.479 Y95.174 E8.18388
G1 X142.347 Y95.442 E8.21409
G1 X143.197 Y95.746 E8.24412
G1 X144.081 Y96.155 E8.27652
G1 X144.894 Y96.624 E8.30773
G1 X145.662 Y97.162 E8.33892
G1 X146.354 Y97.742 E8.36895
G1 X146.97 Y98.354 E8.39783
G1 X147.403 Y98.82 E8.41899
G1 X147.896 Y99.383 E8.44388
G1 X148.475 Y100.119 E8.47503
G1 X148.911 Y100.778 E8.50131
G1 X149.286 Y101.396 E8.52535
G1 X149.952 Y102.527 E8.56901
G1 X151.295 Y104.668 E8.65307
G1 X152.713 Y106.796 E8.73812
G1 X153.944 Y108.556 E8.80955
G1 X154.289 Y109.084 E8.83053
G1 X154.616 Y109.618 E8.85136
G1 X155.067 Y110.433 E8.88234
G1 X155.283 Y110.898 E8.89939
G1 X155.557 Y111.527 E8.92221
G1 X155.954 Y112.594 E8.96008
G1 X156.121 Y113.131 E8.97878
G1 X156.428 Y114.39 E9.02188
G1 X156.54 Y115.023 E9.04326
G1 X156.664 Y115.92 E9.07338
G1 X156.721 Y116.892 E9.10576
G1 X156.745 Y118.31 E9.15293
G1 X156.743 Y133.927 E9.67236
G1 X156.731 Y134.81 E9.70173
G1 X156.701 Y135.507 E9.72493
G1 X156.621 Y136.339 E9.75273
G1 X156.568 Y136.736 E9.76605
G1 X156.395 Y137.684 E9.79811
G1 X156.248 Y138.321 E9.81985
G1 X155.859 Y139.619 E9.86492
G1 X155.694 Y140.064 E9.8807
G1 X155.409 Y140.756 E9.90559
G1 X155.255 Y141.094 E9.91795
G1 X154.753 Y142.058 E9.9541
G1 X154.357 Y142.728 E9.97998
G1 X153.848 Y143.508 E10.01096
G1 X153.495 Y143.973 E10.03038
G1 X153.113 Y144.447 E10.05063
G1 X152.805 Y144.812 E10.06651
G1 X151.083 Y146.761 E10.15301
G1 X148.825 Y149.486 E10.27072
G1 X148.44 Y149.968 E10.29124
G1 X147.826 Y150.67 E10.32226
G1 X147.36 Y151.13 E10.34403
G1 X146.769 Y151.676 E10.3708
G1 X145.838 Y152.497 E10.41208
G1 X144.91 Y153.269 E10.45223
G1 X144.148 Y153.847 E10.48404
G1 X143.383 Y154.327 E10.51408
G1 X142.531 Y154.764 E10.54593
G1 X142.032 Y154.992 E10.56417
G1 X141.283 Y155.313 E10.59128
G1 X140.41 Y155.638 E10.62226
G1 X139.861 Y155.799 E10.64129
G1 X139.093 Y155.998 E10.66768
G1 X138.761 Y156.076 E10.67902
G1 X137.842 Y156.248 E10.71012
G1 X137.117 Y156.326 E10.73437
G1 X136.416 Y156.365 E10.75772
G1 X135.635 Y156.386 E10.78371
G1 X135.21 Y156.389 E10.79784
G1 X134.617 Y156.381 E10.81757
G1 X134.181 Y156.365 E10.83208
G1 X131.625 Y156.223 E10.91722
G1 X127.669 Y156.139 E11.04883
G1 X124.305 Y156.139 E11.16072
G1 X121.71 Y156.176 E11.24704
G1 X119.138 Y156.285 E11.33266
G1 X117.034 Y156.426 E11.40279
G1 X116.131 Y156.447 E11.43284
G1 X115.194 Y156.386 E11.46407
G1 X114.673 Y156.317 E11.48155
G1 X113.98 Y156.207 E11.50488
G1 X113.36 Y156.094 E11.52584
G1 X112.363 Y155.854 E11.55995
G1 X111.771 Y155.68 E11.58048
G1 X110.89 Y155.378 E11.61145
G1 X110.362 Y155.155 E11.63051
G1 X109.93 Y154.957 E11.64632
G1 X108.805 Y154.356 E11.68874
G1 X108.052 Y153.892 E11.71816
G1 X107.305 Y153.384 E11.74821
G1 X106.855 Y153.029 E11.76727
G1 X105.737 Y152.098 E11.81566
G1 X104.927 Y151.403 E11.85116
G1 X104.242 Y150.76 E11.88241
G1 X103.626 Y150.069 E11.9132
G1 X103.048 Y149.359 E11.94365
G1 X102.455 Y148.608 E11.97547
G1 X100.835 Y146.67 E12.05949
G1 X99.171 Y144.786 E12.14309
G1 X98.733 Y144.257 E12.16593
G1 X98.288 Y143.681 E12.19014
G1 X97.74 Y142.901 E12.22185
G1 X97.352 Y142.241 E12.24731
G1 X96.963 Y141.52 E12.27456
G1 X96.466 Y140.459 E12.31353
G1 X96.319 Y140.095 E12.32658
G1 X96.037 Y139.304 E12.35451
G1 X95.921 Y138.93 E12.36754
G1 X95.673 Y137.975 E12.40036
G1 X95.539 Y137.338 E12.42201
G1 X95.379 Y136.329 E12.45598
G1 X95.341 Y135.982 E12.46759
G1 X95.28 Y135.02 E12.49966
G1 X95.256 Y133.625 E12.54606
G1 X95.256 Y117.987 E13.06618
G1 X95.269 Y117.079 E13.09639
G1 X95.298 Y116.417 E13.11842
G1 X95.384 Y115.544 E13.1476
G1 X95.46 Y115.009 E13.16557
G1 X95.69 Y113.856 E13.20468
G1 X95.838 Y113.281 E13.22443
G1 X96.096 Y112.434 E13.25388
G1 X96.223 Y112.077 E13.26648
G1 X96.659 Y111.032 E13.30414
G1 X96.976 Y110.373 E13.32846
G1 X97.62 Y109.225 E13.37224
G1 X97.954 Y108.711 E13.39263
G1 X99.165 Y106.975 E13.46303
G1 X100.63 Y104.802 E13.5502
G1 X102.002 Y102.634 E13.63553
G1 X102.979 Y101.001 E13.69882
G1 X103.37 Y100.38 E13.72323
G1 X103.888 Y99.641 E13.75325
G1 X104.629 Y98.778 E13.79108
M204 S3000
G0 F4800 X104.326 Y98.517
M204 S1000
G1 F1500 X104.858 Y97.966 E13.81655
G1 X105.184 Y97.647 E13.83172
G1 X105.883 Y97.02 E13.86295
G1 X106.69 Y96.416 E13.89648
G1 X107.457 Y95.939 E13.92652
G1 X108.374 Y95.477 E13.96067
G1 X108.832 Y95.283 E13.97722
G1 X109.278 Y95.108 E13.99315
G1 X110.2 Y94.794 E14.02555
G1 X111.135 Y94.565 E14.05757
G1 X111.783 Y94.455 E14.07943
G1 X113.105 Y94.274 E14.12381
G1 X114.071 Y94.187 E14.15607
G1 X114.911 Y94.18 E14.18401
G1 X116.603 Y94.234 E14.24031
G1 X117.127 Y94.262 E14.25776
G1 X120.198 Y94.512 E14.36024
G1 X122.694 Y94.637 E14.44336
G1 X125.195 Y94.693 E14.52657
G1 X127.716 Y94.678 E14.61042
G1 X130.22 Y94.592 E14.69375
G1 X133.536 Y94.371 E14.80429
G1 X134.85 Y94.261 E14.84814
G1 X135.744 Y94.225 E14.8779
G1 X136.631 Y94.226 E14.9074
G1 X137.475 Y94.241 E14.93548
G1 X139.012 Y94.322 E14.98667
G1 X139.981 Y94.423 E15.01908
G1 X140.868 Y94.594 E15.04912
G1 X141.597 Y94.792 E15.07425
G1 X142.482 Y95.065 E15.10505
G1 X143.332 Y95.369 E15.13507
G1 X144.249 Y95.792 E15.16866
G1 X145.123 Y96.296 E15.20222
G1 X145.919 Y96.855 E15.23457
G1 X146.611 Y97.435 E15.2646
G1 X147.263 Y98.082 E15.29515
G1 X147.704 Y98.556 E15.31669
G1 X148.197 Y99.119 E15.34158
G1 X148.809 Y99.898 E15.37452
G1 X149.253 Y100.57 E15.40131
G1 X149.631 Y101.193 E15.42555
G1 X150.291 Y102.314 E15.46882
G1 X151.628 Y104.446 E15.55252
G1 X153.041 Y106.567 E15.63728
G1 X154.279 Y108.337 E15.70912
G1 X154.63 Y108.875 E15.73049
G1 X154.966 Y109.424 E15.7519
G1 X155.43 Y110.264 E15.78382
G1 X155.65 Y110.738 E15.8012
G1 X155.924 Y111.367 E15.82402
G1 X156.336 Y112.475 E15.86333
G1 X156.51 Y113.036 E15.88287
G1 X156.817 Y114.295 E15.92597
G1 X156.936 Y114.968 E15.9487
G1 X157.063 Y115.897 E15.97989
G1 X157.121 Y116.885 E16.01281
G1 X157.145 Y118.31 E16.06021
G1 X157.143 Y133.932 E16.5798
G1 X157.131 Y134.827 E16.60957
G1 X157.101 Y135.524 E16.63277
G1 X157.017 Y136.392 E16.66178
G1 X156.962 Y136.808 E16.67573
G1 X156.785 Y137.774 E16.7084
G1 X156.638 Y138.411 E16.73014
G1 X156.234 Y139.758 E16.77691
G1 X156.064 Y140.216 E16.79316
G1 X155.773 Y140.922 E16.81856
G1 X155.61 Y141.279 E16.83161
G1 X155.097 Y142.262 E16.86849
G1 X154.692 Y142.947 E16.89496
G1 X154.167 Y143.75 E16.92687
G1 X153.806 Y144.224 E16.94669
G1 X153.419 Y144.705 E16.96722
G1 X153.105 Y145.077 E16.98341
G1 X151.383 Y147.026 E17.06991
G1 X149.138 Y149.736 E17.18696
G1 X148.753 Y150.218 E17.20748
G1 X148.107 Y150.955 E17.24007
G1 X147.631 Y151.424 E17.2623
G1 X147.034 Y151.976 E17.28934
G1 X146.094 Y152.805 E17.33103
G1 X145.152 Y153.588 E17.37177
G1 X144.361 Y154.186 E17.40475
G1 X143.596 Y154.666 E17.43479
G1 X142.697 Y155.128 E17.46841
G1 X142.19 Y155.36 E17.48695
G1 X141.423 Y155.688 E17.5147
G1 X140.523 Y156.022 E17.54663
G1 X139.961 Y156.186 E17.5661
G1 X139.184 Y156.387 E17.59279
G1 X138.835 Y156.469 E17.60471
G1 X137.885 Y156.646 E17.63686
G1 X137.16 Y156.724 E17.66111
G1 X136.427 Y156.765 E17.68553
G1 X135.638 Y156.786 E17.71178
G1 X135.205 Y156.789 E17.72618
G1 X134.602 Y156.781 E17.74624
G1 X134.159 Y156.764 E17.76098
G1 X131.617 Y156.623 E17.84566
G1 X127.661 Y156.539 E17.97727
G1 X124.311 Y156.539 E18.08869
G1 X121.727 Y156.576 E18.17464
G1 X119.155 Y156.685 E18.26026
G1 X117.043 Y156.826 E18.33066
G1 X116.14 Y156.847 E18.36071
G1 X115.141 Y156.783 E18.394
G1 X114.61 Y156.712 E18.41182
G1 X113.908 Y156.601 E18.43546
G1 X113.266 Y156.483 E18.45717
G1 X112.25 Y156.238 E18.49193
G1 X111.641 Y156.058 E18.51305
G1 X110.734 Y155.746 E18.54495
G1 X110.195 Y155.519 E18.56441
G1 X109.763 Y155.321 E18.58021
G1 X108.595 Y154.697 E18.62426
G1 X107.827 Y154.223 E18.65427
G1 X107.08 Y153.715 E18.68432
G1 X106.599 Y153.336 E18.70469
G1 X105.477 Y152.402 E18.75324
G1 X104.653 Y151.695 E18.78935
G1 X103.968 Y151.052 E18.8206
G1 X103.316 Y150.322 E18.85316
G1 X102.734 Y149.607 E18.88382
G1 X102.148 Y148.865 E18.91527
G1 X100.528 Y146.927 E18.99928
G1 X98.863 Y145.041 E19.08295
G1 X98.416 Y144.502 E19.10624
G1 X97.971 Y143.926 E19.13045
G1 X97.395 Y143.104 E19.16384
G1 X97 Y142.431 E19.18979
G1 X96.601 Y141.69 E19.21778
G1 X96.095 Y140.609 E19.25748
G1 X95.942 Y140.229 E19.27111
G1 X95.655 Y139.422 E19.2996
G1 X95.534 Y139.031 E19.31321
G1 X95.282 Y138.057 E19.34667
G1 X95.144 Y137.401 E19.36897
G1 X94.981 Y136.373 E19.40359
G1 X94.943 Y136.026 E19.4152
G1 X94.88 Y135.027 E19.44849
G1 X94.856 Y133.632 E19.49489
G1 X94.856 Y117.981 E20.01545
G1 X94.869 Y117.061 E20.04605
G1 X94.898 Y116.399 E20.06809
G1 X94.988 Y115.488 E20.09854
G1 X95.068 Y114.931 E20.11725
G1 X95.303 Y113.756 E20.15711
G1 X95.455 Y113.164 E20.17744
G1 X95.719 Y112.3 E20.20748
G1 X95.854 Y111.923 E20.2208
G1 X96.299 Y110.859 E20.25916
G1 X96.627 Y110.177 E20.28433
G1 X97.271 Y109.029 E20.32811
G1 X97.626 Y108.482 E20.3498
G1 X98.833 Y106.751 E20.41999
G1 X100.298 Y104.578 E20.50715
G1 X101.664 Y102.42 E20.5921
G1 X102.641 Y100.788 E20.65536
G1 X103.042 Y100.15 E20.68043
G1 X103.56 Y99.411 E20.71044
G1 X104.326 Y98.517 E20.7496
M204 S3000
G0 F4800 X104.038 Y98.239
M204 S1000
G1 F1500 X104.578 Y97.68 E20.77545
G1 X104.917 Y97.349 E20.79121
G1 X105.616 Y96.722 E20.82244
G1 X106.479 Y96.076 E20.8583
G1 X107.246 Y95.599 E20.88834
G1 X108.218 Y95.109 E20.92454
G1 X108.686 Y94.911 E20.94144
G1 X109.149 Y94.729 E20.95799
G1 X110.105 Y94.405 E20.99156
G1 X111.04 Y94.176 E21.02358
G1 X111.729 Y94.059 E21.04682
G1 X113.069 Y93.876 E21.09181
G1 X114.068 Y93.787 E21.12517
G1 X114.924 Y93.78 E21.15364
